assets/luts/qt_gamma_comp_100.cube
TITLE "qt_gamma_comp_100"
LUT_3D_SIZE 33
DOMAIN_MIN 0.0 0.0 0.0
DOMAIN_MAX 1.0 1.0 1.0
0.000000 0.000000 0.000000
0.014354 0.000000 0.000000
0.033540 0.000000 0.000000
0.055105 0.000000 0.000000
0.078375 0.000000 0.000000
0.103001 0.000000 0.000000
0.128765 0.000000 0.000000
0.155515 0.000000 0.000000
0.183140 0.000000 0.000000
0.211553 0.000000 0.000000
0.240685 0.000000 0.000000
0.270479 0.000000 0.000000
0.300889 0.000000 0.000000
0.331873 0.000000 0.000000
0.363397 0.000000 0.000000
0.395431 0.000000 0.000000
0.427949 0.000000 0.000000
0.460926 0.000000 0.000000
0.494342 0.000000 0.000000
0.528178 0.000000 0.000000
0.562415 0.000000 0.000000
0.597040 0.000000 0.000000
0.632036 0.000000 0.000000
0.667392 0.000000 0.000000
0.703095 0.000000 0.000000
0.739133 0.000000 0.000000
0.775496 0.000000 0.000000
0.812175 0.000000 0.000000
0.849160 0.000000 0.000000
0.886443 0.000000 0.000000
0.924015 0.000000 0.000000
0.961870 0.000000 0.000000
1.000000 0.000000 0.000000
0.000000 0.014354 0.000000
0.014354 0.014354 0.000000
0.033540 0.014354 0.000000
0.055105 0.014354 0.000000
0.078375 0.014354 0.000000
0.103001 0.014354 0.000000
0.128765 0.014354 0.000000
0.155515 0.014354 0.000000
0.183140 0.014354 0.000000
0.211553 0.014354 0.000000
0.240685 0.014354 0.000000
0.270479 0.014354 0.000000
0.300889 0.014354 0.000000
0.331873 0.014354 0.000000
0.363397 0.014354 0.000000
0.395431 0.014354 0.000000
0.427949 0.014354 0.000000
0.460926 0.014354 0.000000
0.494342 0.014354 0.000000
0.528178 0.014354 0.000000
0.562415 0.014354 0.000000
0.597040 0.014354 0.000000
0.632036 0.014354 0.000000
0.667392 0.014354 0.000000
0.703095 0.014354 0.000000
0.739133 0.014354 0.000000
0.775496 0.014354 0.000000
0.812175 0.014354 0.000000
0.849160 0.014354 0.000000
0.886443 0.014354 0.000000
0.924015 0.014354 0.000000
0.961870 0.014354 0.000000
1.000000 0.014354 0.000000
0.000000 0.033540 0.000000
0.014354 0.033540 0.000000
0.033540 0.033540 0.000000
0.055105 0.033540 0.000000
0.078375 0.033540 0.000000
0.103001 0.033540 0.000000
0.128765 0.033540 0.000000
0.155515 0.033540 0.000000
0.183140 0.033540 0.000000
0.211553 0.033540 0.000000
0.240685 0.033540 0.000000
0.270479 0.033540 0.000000
0.300889 0.033540 0.000000
0.331873 0.033540 0.000000
0.363397 0.033540 0.000000
0.395431 0.033540 0.000000
0.427949 0.033540 0.000000
0.460926 0.033540 0.000000
0.494342 0.033540 0.000000
0.528178 0.033540 0.000000
0.562415 0.033540 0.000000
0.597040 0.033540 0.000000
0.632036 0.033540 0.000000
0.667392 0.033540 0.000000
0.703095 0.033540 0.000000
0.739133 0.033540 0.000000
0.775496 0.033540 0.000000
0.812175 0.033540 0.000000
0.849160 0.033540 0.000000
0.886443 0.033540 0.000000
0.924015 0.033540 0.000000
0.961870 0.033540 0.000000
1.000000 0.033540 0.000000
0.000000 0.055105 0.000000
0.014354 0.055105 0.000000
0.033540 0.055105 0.000000
0.055105 0.055105 0.000000
0.078375 0.055105 0.000000
0.103001 0.055105 0.000000
0.128765 0.055105 0.000000
0.155515 0.055105 0.000000
0.183140 0.055105 0.000000
0.211553 0.055105 0.000000
0.240685 0.055105 0.000000
0.270479 0.055105 0.000000
0.300889 0.055105 0.000000
0.331873 0.055105 0.000000
0.363397 0.055105 0.000000
0.395431 0.055105 0.000000
0.427949 0.055105 0.000000
0.460926 0.055105 0.000000
0.494342 0.055105 0.000000
0.528178 0.055105 0.000000
0.562415 0.055105 0.000000
0.597040 0.055105 0.000000
0.632036 0.055105 0.000000
0.667392 0.055105 0.000000
0.703095 0.055105 0.000000
0.739133 0.055105 0.000000
0.775496 0.055105 0.000000
0.812175 0.055105 0.000000
0.849160 0.055105 0.000000
0.886443 0.055105 0.000000
0.924015 0.055105 0.000000
0.961870 0.055105 0.000000
1.000000 0.055105 0.000000
0.000000 0.078375 0.000000
0.014354 0.078375 0.000000
0.033540 0.078375 0.000000
0.055105 0.078375 0.000000
0.078375 0.078375 0.000000
0.103001 0.078375 0.000000
0.128765 0.078375 0.000000
0.155515 0.078375 0.000000
0.183140 0.078375 0.000000
0.211553 0.078375 0.000000
0.240685 0.078375 0.000000
0.270479 0.078375 0.000000
0.300889 0.078375 0.000000
0.331873 0.078375 0.000000
0.363397 0.078375 0.000000
0.395431 0.078375 0.000000
0.427949 0.078375 0.000000
0.460926 0.078375 0.000000
0.494342 0.078375 0.000000
0.528178 0.078375 0.000000
0.562415 0.078375 0.000000
0.597040 0.078375 0.000000
0.632036 0.078375 0.000000
0.667392 0.078375 0.000000
0.703095 0.078375 0.000000
0.739133 0.078375 0.000000
0.775496 0.078375 0.000000
0.812175 0.078375 0.000000
0.849160 0.078375 0.000000
0.886443 0.078375 0.000000
0.924015 0.078375 0.000000
0.961870 0.078375 0.000000
1.000000 0.078375 0.000000
0.000000 0.103001 0.000000
0.014354 0.103001 0.000000
0.033540 0.103001 0.000000
0.055105 0.103001 0.000000
0.078375 0.103001 0.000000
0.103001 0.103001 0.000000
0.128765 0.103001 0.000000
0.155515 0.103001 0.000000
0.183140 0.103001 0.000000
0.211553 0.103001 0.000000
0.240685 0.103001 0.000000
0.270479 0.103001 0.000000
0.300889 0.103001 0.000000
0.331873 0.103001 0.000000
0.363397 0.103001 0.000000
0.395431 0.103001 0.000000
0.427949 0.103001 0.000000
0.460926 0.103001 0.000000
0.494342 0.103001 0.000000
0.528178 0.103001 0.000000
0.562415 0.103001 0.000000
0.597040 0.103001 0.000000
0.632036 0.103001 0.000000
0.667392 0.103001 0.000000
0.703095 0.103001 0.000000
0.739133 0.103001 0.000000
0.775496 0.103001 0.000000
0.812175 0.103001 0.000000
0.849160 0.103001 0.000000
0.886443 0.103001 0.000000
0.924015 0.103001 0.000000
0.961870 0.103001 0.000000
1.000000 0.103001 0.000000
0.000000 0.128765 0.000000
0.014354 0.128765 0.000000
0.033540 0.128765 0.000000
0.055105 0.128765 0.000000
0.078375 0.128765 0.000000
0.103001 0.128765 0.000000
0.128765 0.128765 0.000000
0.155515 0.128765 0.000000
0.183140 0.128765 0.000000
0.211553 0.128765 0.000000
0.240685 0.128765 0.000000
0.270479 0.128765 0.000000
0.300889 0.128765 0.000000
0.331873 0.128765 0.000000
0.363397 0.128765 0.000000
0.395431 0.128765 0.000000
0.427949 0.128765 0.000000
0.460926 0.128765 0.000000
0.494342 0.128765 0.000000
0.528178 0.128765 0.000000
0.562415 0.128765 0.000000
0.597040 0.128765 0.000000
0.632036 0.128765 0.000000
0.667392 0.128765 0.000000
0.703095 0.128765 0.000000
0.739133 0.128765 0.000000
0.775496 0.128765 0.000000
0.812175 0.128765 0.000000
0.849160 0.128765 0.000000
0.886443 0.128765 0.000000
0.924015 0.128765 0.000000
0.961870 0.128765 0.000000
1.000000 0.128765 0.000000
0.000000 0.155515 0.000000
0.014354 0.155515 0.000000
0.033540 0.155515 0.000000
0.055105 0.155515 0.000000
0.078375 0.155515 0.000000
0.103001 0.155515 0.000000
0.128765 0.155515 0.000000
0.155515 0.155515 0.000000
0.183140 0.155515 0.000000
0.211553 0.155515 0.000000
0.240685 0.155515 0.000000
0.270479 0.155515 0.000000
0.300889 0.155515 0.000000
0.331873 0.155515 0.000000
0.363397 0.155515 0.000000
0.395431 0.155515 0.000000
0.427949 0.155515 0.000000
0.460926 0.155515 0.000000
0.494342 0.155515 0.000000
0.528178 0.155515 0.000000
0.562415 0.155515 0.000000
0.597040 0.155515 0.000000
0.632036 0.155515 0.000000
0.667392 0.155515 0.000000
0.703095 0.155515 0.000000
0.739133 0.155515 0.000000
0.775496 0.155515 0.000000
0.812175 0.155515 0.000000
0.849160 0.155515 0.000000
0.886443 0.155515 0.000000
0.924015 0.155515 0.000000
0.961870 0.155515 0.000000
1.000000 0.155515 0.000000
0.000000 0.183140 0.000000
0.014354 0.183140 0.000000
0.033540 0.183140 0.000000
0.055105 0.183140 0.000000
0.078375 0.183140 0.000000
0.103001 0.183140 0.000000
0.128765 0.183140 0.000000
0.155515 0.183140 0.000000
0.183140 0.183140 0.000000
0.211553 0.183140 0.000000
0.240685 0.183140 0.000000
0.270479 0.183140 0.000000
0.300889 0.183140 0.000000
0.331873 0.183140 0.000000
0.363397 0.183140 0.000000
0.395431 0.183140 0.000000
0.427949 0.183140 0.000000
0.460926 0.183140 0.000000
0.494342 0.183140 0.000000
0.528178 0.183140 0.000000
0.562415 0.183140 0.000000
0.597040 0.183140 0.000000
0.632036 0.183140 0.000000
0.667392 0.183140 0.000000
0.703095 0.183140 0.000000
0.739133 0.183140 0.000000
0.775496 0.183140 0.000000
0.812175 0.183140 0.000000
0.849160 0.183140 0.000000
0.886443 0.183140 0.000000
0.924015 0.183140 0.000000
0.961870 0.183140 0.000000
1.000000 0.183140 0.000000
0.000000 0.211553 0.000000
0.014354 0.211553 0.000000
0.033540 0.211553 0.000000
0.055105 0.211553 0.000000
0.078375 0.211553 0.000000
0.103001 0.211553 0.000000
0.128765 0.211553 0.000000
0.155515 0.211553 0.000000
0.183140 0.211553 0.000000
0.211553 0.211553 0.000000
0.240685 0.211553 0.000000
0.270479 0.211553 0.000000
0.300889 0.211553 0.000000
0.331873 0.211553 0.000000
0.363397 0.211553 0.000000
0.395431 0.211553 0.000000
0.427949 0.211553 0.000000
0.460926 0.211553 0.000000
0.494342 0.211553 0.000000
0.528178 0.211553 0.000000
0.562415 0.211553 0.000000
0.597040 0.211553 0.000000
0.632036 0.211553 0.000000
0.667392 0.211553 0.000000
0.703095 0.211553 0.000000
0.739133 0.211553 0.000000
0.775496 0.211553 0.000000
0.812175 0.211553 0.000000
0.849160 0.211553 0.000000
0.886443 0.211553 0.000000
0.924015 0.211553 0.000000
0.961870 0.211553 0.000000
1.000000 0.211553 0.000000
0.000000 0.240685 0.000000
0.014354 0.240685 0.000000
0.033540 0.240685 0.000000
0.055105 0.240685 0.000000
0.078375 0.240685 0.000000
0.103001 0.240685 0.000000
0.128765 0.240685 0.000000
0.155515 0.240685 0.000000
0.183140 0.240685 0.000000
0.211553 0.240685 0.000000
0.240685 0.240685 0.000000
0.270479 0.240685 0.000000
0.300889 0.240685 0.000000
0.331873 0.240685 0.000000
0.363397 0.240685 0.000000
0.395431 0.240685 0.000000
0.427949 0.240685 0.000000
0.460926 0.240685 0.000000
0.494342 0.240685 0.000000
0.528178 0.240685 0.000000
0.562415 0.240685 0.000000
0.597040 0.240685 0.000000
0.632036 0.240685 0.000000
0.667392 0.240685 0.000000
0.703095 0.240685 0.000000
0.739133 0.240685 0.000000
0.775496 0.240685 0.000000
0.812175 0.240685 0.000000
0.849160 0.240685 0.000000
0.886443 0.240685 0.000000
0.924015 0.240685 0.000000
0.961870 0.240685 0.000000
1.000000 0.240685 0.000000
0.000000 0.270479 0.000000
0.014354 0.270479 0.000000
0.033540 0.270479 0.000000
0.055105 0.270479 0.000000
0.078375 0.270479 0.000000
0.103001 0.270479 0.000000
0.128765 0.270479 0.000000
0.155515 0.270479 0.000000
0.183140 0.270479 0.000000
0.211553 0.270479 0.000000
0.240685 0.270479 0.000000
0.270479 0.270479 0.000000
0.300889 0.270479 0.000000
0.331873 0.270479 0.000000
0.363397 0.270479 0.000000
0.395431 0.270479 0.000000
0.427949 0.270479 0.000000
0.460926 0.270479 0.000000
0.494342 0.270479 0.000000
0.528178 0.270479 0.000000
0.562415 0.270479 0.000000
0.597040 0.270479 0.000000
0.632036 0.270479 0.000000
0.667392 0.270479 0.000000
0.703095 0.270479 0.000000
0.739133 0.270479 0.000000
0.775496 0.270479 0.000000
0.812175 0.270479 0.000000
0.849160 0.270479 0.000000
0.886443 0.270479 0.000000
0.924015 0.270479 0.000000
0.961870 0.270479 0.000000
1.000000 0.270479 0.000000
0.000000 0.300889 0.000000
0.014354 0.300889 0.000000
0.033540 0.300889 0.000000
0.055105 0.300889 0.000000
0.078375 0.300889 0.000000
0.103001 0.300889 0.000000
0.128765 0.300889 0.000000
0.155515 0.300889 0.000000
0.183140 0.300889 0.000000
0.211553 0.300889 0.000000
0.240685 0.300889 0.000000
0.270479 0.300889 0.000000
0.300889 0.300889 0.000000
0.331873 0.300889 0.000000
0.363397 0.300889 0.000000
0.395431 0.300889 0.000000
0.427949 0.300889 0.000000
0.460926 0.300889 0.000000
0.494342 0.300889 0.000000
0.528178 0.300889 0.000000
0.562415 0.300889 0.000000
0.597040 0.300889 0.000000
0.632036 0.300889 0.000000
0.667392 0.300889 0.000000
0.703095 0.300889 0.000000
0.739133 0.300889 0.000000
0.775496 0.300889 0.000000
0.812175 0.300889 0.000000
0.849160 0.300889 0.000000
0.886443 0.300889 0.000000
0.924015 0.300889 0.000000
0.961870 0.300889 0.000000
1.000000 0.300889 0.000000
0.000000 0.331873 0.000000
0.014354 0.331873 0.000000
0.033540 0.331873 0.000000
0.055105 0.331873 0.000000
0.078375 0.331873 0.000000
0.103001 0.331873 0.000000
0.128765 0.331873 0.000000
0.155515 0.331873 0.000000
0.183140 0.331873 0.000000
0.211553 0.331873 0.000000
0.240685 0.331873 0.000000
0.270479 0.331873 0.000000
0.300889 0.331873 0.000000
0.331873 0.331873 0.000000
0.363397 0.331873 0.000000
0.395431 0.331873 0.000000
0.427949 0.331873 0.000000
0.460926 0.331873 0.000000
0.494342 0.331873 0.000000
0.528178 0.331873 0.000000
0.562415 0.331873 0.000000
0.597040 0.331873 0.000000
0.632036 0.331873 0.000000
0.667392 0.331873 0.000000
0.703095 0.331873 0.000000
0.739133 0.331873 0.000000
0.775496 0.331873 0.000000
0.812175 0.331873 0.000000
0.849160 0.331873 0.000000
0.886443 0.331873 0.000000
0.924015 0.331873 0.000000
0.961870 0.331873 0.000000
1.000000 0.331873 0.000000
0.000000 0.363397 0.000000
0.014354 0.363397 0.000000
0.033540 0.363397 0.000000
0.055105 0.363397 0.000000
0.078375 0.363397 0.000000
0.103001 0.363397 0.000000
0.128765 0.363397 0.000000
0.155515 0.363397 0.000000
0.183140 0.363397 0.000000
0.211553 0.363397 0.000000
0.240685 0.363397 0.000000
0.270479 0.363397 0.000000
0.300889 0.363397 0.000000
0.331873 0.363397 0.000000
0.363397 0.363397 0.000000
0.395431 0.363397 0.000000
0.427949 0.363397 0.000000
0.460926 0.363397 0.000000
0.494342 0.363397 0.000000
0.528178 0.363397 0.000000
0.562415 0.363397 0.000000
0.597040 0.363397 0.000000
0.632036 0.363397 0.000000
0.667392 0.363397 0.000000
0.703095 0.363397 0.000000
0.739133 0.363397 0.000000
0.775496 0.363397 0.000000
0.812175 0.363397 0.000000
0.849160 0.363397 0.000000
0.886443 0.363397 0.000000
0.924015 0.363397 0.000000
0.961870 0.363397 0.000000
1.000000 0.363397 0.000000
0.000000 0.395431 0.000000
0.014354 0.395431 0.000000
0.033540 0.395431 0.000000
0.055105 0.395431 0.000000
0.078375 0.395431 0.000000
0.103001 0.395431 0.000000
0.128765 0.395431 0.000000
0.155515 0.395431 0.000000
0.183140 0.395431 0.000000
0.211553 0.395431 0.000000
0.240685 0.395431 0.000000
0.270479 0.395431 0.000000
0.300889 0.395431 0.000000
0.331873 0.395431 0.000000
0.363397 0.395431 0.000000
0.395431 0.395431 0.000000
0.427949 0.395431 0.000000
0.460926 0.395431 0.000000
0.494342 0.395431 0.000000
0.528178 0.395431 0.000000
0.562415 0.395431 0.000000
0.597040 0.395431 0.000000
0.632036 0.395431 0.000000
0.667392 0.395431 0.000000
0.703095 0.395431 0.000000
0.739133 0.395431 0.000000
0.775496 0.395431 0.000000
0.812175 0.395431 0.000000
0.849160 0.395431 0.000000
0.886443 0.395431 0.000000
0.924015 0.395431 0.000000
0.961870 0.395431 0.000000
1.000000 0.395431 0.000000
0.000000 0.427949 0.000000
0.014354 0.427949 0.000000
0.033540 0.427949 0.000000
0.055105 0.427949 0.000000
0.078375 0.427949 0.000000
0.103001 0.427949 0.000000
0.128765 0.427949 0.000000
0.155515 0.427949 0.000000
0.183140 0.427949 0.000000
0.211553 0.427949 0.000000
0.240685 0.427949 0.000000
0.270479 0.427949 0.000000
0.300889 0.427949 0.000000
0.331873 0.427949 0.000000
0.363397 0.427949 0.000000
0.395431 0.427949 0.000000
0.427949 0.427949 0.000000
0.460926 0.427949 0.000000
0.494342 0.427949 0.000000
0.528178 0.427949 0.000000
0.562415 0.427949 0.000000
0.597040 0.427949 0.000000
0.632036 0.427949 0.000000
0.667392 0.427949 0.000000
0.703095 0.427949 0.000000
0.739133 0.427949 0.000000
0.775496 0.427949 0.000000
0.812175 0.427949 0.000000
0.849160 0.427949 0.000000
0.886443 0.427949 0.000000
0.924015 0.427949 0.000000
0.961870 0.427949 0.000000
1.000000 0.427949 0.000000
0.000000 0.460926 0.000000
0.014354 0.460926 0.000000
0.033540 0.460926 0.000000
0.055105 0.460926 0.000000
0.078375 0.460926 0.000000
0.103001 0.460926 0.000000
0.128765 0.460926 0.000000
0.155515 0.460926 0.000000
0.183140 0.460926 0.000000
0.211553 0.460926 0.000000
0.240685 0.460926 0.000000
0.270479 0.460926 0.000000
0.300889 0.460926 0.000000
0.331873 0.460926 0.000000
0.363397 0.460926 0.000000
0.395431 0.460926 0.000000
0.427949 0.460926 0.000000
0.460926 0.460926 0.000000
0.494342 0.460926 0.000000
0.528178 0.460926 0.000000
0.562415 0.460926 0.000000
0.597040 0.460926 0.000000
0.632036 0.460926 0.000000
0.667392 0.460926 0.000000
0.703095 0.460926 0.000000
0.739133 0.460926 0.000000
0.775496 0.460926 0.000000
0.812175 0.460926 0.000000
0.849160 0.460926 0.000000
0.886443 0.460926 0.000000
0.924015 0.460926 0.000000
0.961870 0.460926 0.000000
1.000000 0.460926 0.000000
0.000000 0.494342 0.000000
0.014354 0.494342 0.000000
0.033540 0.494342 0.000000
0.055105 0.494342 0.000000
0.078375 0.494342 0.000000
0.103001 0.494342 0.000000
0.128765 0.494342 0.000000
0.155515 0.494342 0.000000
0.183140 0.494342 0.000000
0.211553 0.494342 0.000000
0.240685 0.494342 0.000000
0.270479 0.494342 0.000000
0.300889 0.494342 0.000000
0.331873 0.494342 0.000000
0.363397 0.494342 0.000000
0.395431 0.494342 0.000000
0.427949 0.494342 0.000000
0.460926 0.494342 0.000000
0.494342 0.494342 0.000000
0.528178 0.494342 0.000000
0.562415 0.494342 0.000000
0.597040 0.494342 0.000000
0.632036 0.494342 0.000000
0.667392 0.494342 0.000000
0.703095 0.494342 0.000000
0.739133 0.494342 0.000000
0.775496 0.494342 0.000000
0.812175 0.494342 0.000000
0.849160 0.494342 0.000000
0.886443 0.494342 0.000000
0.924015 0.494342 0.000000
0.961870 0.494342 0.000000
1.000000 0.494342 0.000000
0.000000 0.528178 0.000000
0.014354 0.528178 0.000000
0.033540 0.528178 0.000000
0.055105 0.528178 0.000000
0.078375 0.528178 0.000000
0.103001 0.528178 0.000000
0.128765 0.528178 0.000000
0.155515 0.528178 0.000000
0.183140 0.528178 0.000000
0.211553 0.528178 0.000000
0.240685 0.528178 0.000000
0.270479 0.528178 0.000000
0.300889 0.528178 0.000000
0.331873 0.528178 0.000000
0.363397 0.528178 0.000000
0.395431 0.528178 0.000000
0.427949 0.528178 0.000000
0.460926 0.528178 0.000000
0.494342 0.528178 0.000000
0.528178 0.528178 0.000000
0.562415 0.528178 0.000000
0.597040 0.528178 0.000000
0.632036 0.528178 0.000000
0.667392 0.528178 0.000000
0.703095 0.528178 0.000000
0.739133 0.528178 0.000000
0.775496 0.528178 0.000000
0.812175 0.528178 0.000000
0.849160 0.528178 0.000000
0.886443 0.528178 0.000000
0.924015 0.528178 0.000000
0.961870 0.528178 0.000000
1.000000 0.528178 0.000000
0.000000 0.562415 0.000000
0.014354 0.562415 0.000000
0.033540 0.562415 0.000000
0.055105 0.562415 0.000000
0.078375 0.562415 0.000000
0.103001 0.562415 0.000000
0.128765 0.562415 0.000000
0.155515 0.562415 0.000000
0.183140 0.562415 0.000000
0.211553 0.562415 0.000000
0.240685 0.562415 0.000000
0.270479 0.562415 0.000000
0.300889 0.562415 0.000000
0.331873 0.562415 0.000000
0.363397 0.562415 0.000000
0.395431 0.562415 0.000000
0.427949 0.562415 0.000000
0.460926 0.562415 0.000000
0.494342 0.562415 0.000000
0.528178 0.562415 0.000000
0.562415 0.562415 0.000000
0.597040 0.562415 0.000000
0.632036 0.562415 0.000000
0.667392 0.562415 0.000000
0.703095 0.562415 0.000000
0.739133 0.562415 0.000000
0.775496 0.562415 0.000000
0.812175 0.562415 0.000000
0.849160 0.562415 0.000000
0.886443 0.562415 0.000000
0.924015 0.562415 0.000000
0.961870 0.562415 0.000000
1.000000 0.562415 0.000000
0.000000 0.597040 0.000000
0.014354 0.597040 0.000000
0.033540 0.597040 0.000000
0.055105 0.597040 0.000000
0.078375 0.597040 0.000000
0.103001 0.597040 0.000000
0.128765 0.597040 0.000000
0.155515 0.597040 0.000000
0.183140 0.597040 0.000000
0.211553 0.597040 0.000000
0.240685 0.597040 0.000000
0.270479 0.597040 0.000000
0.300889 0.597040 0.000000
0.331873 0.597040 0.000000
0.363397 0.597040 0.000000
0.395431 0.597040 0.000000
0.427949 0.597040 0.000000
0.460926 0.597040 0.000000
0.494342 0.597040 0.000000
0.528178 0.597040 0.000000
0.562415 0.597040 0.000000
0.597040 0.597040 0.000000
0.632036 0.597040 0.000000
0.667392 0.597040 0.000000
0.703095 0.597040 0.000000
0.739133 0.597040 0.000000
0.775496 0.597040 0.000000
0.812175 0.597040 0.000000
0.849160 0.597040 0.000000
0.886443 0.597040 0.000000
0.924015 0.597040 0.000000
0.961870 0.597040 0.000000
1.000000 0.597040 0.000000
0.000000 0.632036 0.000000
0.014354 0.632036 0.000000
0.033540 0.632036 0.000000
0.055105 0.632036 0.000000
0.078375 0.632036 0.000000
0.103001 0.632036 0.000000
0.128765 0.632036 0.000000
0.155515 0.632036 0.000000
0.183140 0.632036 0.000000
0.211553 0.632036 0.000000
0.240685 0.632036 0.000000
0.270479 0.632036 0.000000
0.300889 0.632036 0.000000
0.331873 0.632036 0.000000
0.363397 0.632036 0.000000
0.395431 0.632036 0.000000
0.427949 0.632036 0.000000
0.460926 0.632036 0.000000
0.494342 0.632036 0.000000
0.528178 0.632036 0.000000
0.562415 0.632036 0.000000
0.597040 0.632036 0.000000
0.632036 0.632036 0.000000
0.667392 0.632036 0.000000
0.703095 0.632036 0.000000
0.739133 0.632036 0.000000
0.775496 0.632036 0.000000
0.812175 0.632036 0.000000
0.849160 0.632036 0.000000
0.886443 0.632036 0.000000
0.924015 0.632036 0.000000
0.961870 0.632036 0.000000
1.000000 0.632036 0.000000
0.000000 0.667392 0.000000
0.014354 0.667392 0.000000
0.033540 0.667392 0.000000
0.055105 0.667392 0.000000
0.078375 0.667392 0.000000
0.103001 0.667392 0.000000
0.128765 0.667392 0.000000
0.155515 0.667392 0.000000
0.183140 0.667392 0.000000
0.211553 0.667392 0.000000
0.240685 0.667392 0.000000
0.270479 0.667392 0.000000
0.300889 0.667392 0.000000
0.331873 0.667392 0.000000
0.363397 0.667392 0.000000
0.395431 0.667392 0.000000
0.427949 0.667392 0.000000
0.460926 0.667392 0.000000
0.494342 0.667392 0.000000
0.528178 0.667392 0.000000
0.562415 0.667392 0.000000
0.597040 0.667392 0.000000
0.632036 0.667392 0.000000
0.667392 0.667392 0.000000
0.703095 0.667392 0.000000
0.739133 0.667392 0.000000
0.775496 0.667392 0.000000
0.812175 0.667392 0.000000
0.849160 0.667392 0.000000
0.886443 0.667392 0.000000
0.924015 0.667392 0.000000
0.961870 0.667392 0.000000
1.000000 0.667392 0.000000
0.000000 0.703095 0.000000
0.014354 0.703095 0.000000
0.033540 0.703095 0.000000
0.055105 0.703095 0.000000
0.078375 0.703095 0.000000
0.103001 0.703095 0.000000
0.128765 0.703095 0.000000
0.155515 0.703095 0.000000
0.183140 0.703095 0.000000
0.211553 0.703095 0.000000
0.240685 0.703095 0.000000
0.270479 0.703095 0.000000
0.300889 0.703095 0.000000
0.331873 0.703095 0.000000
0.363397 0.703095 0.000000
0.395431 0.703095 0.000000
0.427949 0.703095 0.000000
0.460926 0.703095 0.000000
0.494342 0.703095 0.000000
0.528178 0.703095 0.000000
0.562415 0.703095 0.000000
0.597040 0.703095 0.000000
0.632036 0.703095 0.000000
0.667392 0.703095 0.000000
0.703095 0.703095 0.000000
0.739133 0.703095 0.000000
0.775496 0.703095 0.000000
0.812175 0.703095 0.000000
0.849160 0.703095 0.000000
0.886443 0.703095 0.000000
0.924015 0.703095 0.000000
0.961870 0.703095 0.000000
1.000000 0.703095 0.000000
0.000000 0.739133 0.000000
0.014354 0.739133 0.000000
0.033540 0.739133 0.000000
0.055105 0.739133 0.000000
0.078375 0.739133 0.000000
0.103001 0.739133 0.000000
0.128765 0.739133 0.000000
0.155515 0.739133 0.000000
0.183140 0.739133 0.000000
0.211553 0.739133 0.000000
0.240685 0.739133 0.000000
0.270479 0.739133 0.000000
0.300889 0.739133 0.000000
0.331873 0.739133 0.000000
0.363397 0.739133 0.000000
0.395431 0.739133 0.000000
0.427949 0.739133 0.000000
0.460926 0.739133 0.000000
0.494342 0.739133 0.000000
0.528178 0.739133 0.000000
0.562415 0.739133 0.000000
0.597040 0.739133 0.000000
0.632036 0.739133 0.000000
0.667392 0.739133 0.000000
0.703095 0.739133 0.000000
0.739133 0.739133 0.000000
0.775496 0.739133 0.000000
0.812175 0.739133 0.000000
0.849160 0.739133 0.000000
0.886443 0.739133 0.000000
0.924015 0.739133 0.000000
0.961870 0.739133 0.000000
1.000000 0.739133 0.000000
0.000000 0.775496 0.000000
0.014354 0.775496 0.000000
0.033540 0.775496 0.000000
0.055105 0.775496 0.000000
0.078375 0.775496 0.000000
0.103001 0.775496 0.000000
0.128765 0.775496 0.000000
0.155515 0.775496 0.000000
0.183140 0.775496 0.000000
0.211553 0.775496 0.000000
0.240685 0.775496 0.000000
0.270479 0.775496 0.000000
0.300889 0.775496 0.000000
0.331873 0.775496 0.000000
0.363397 0.775496 0.000000
0.395431 0.775496 0.000000
0.427949 0.775496 0.000000
0.460926 0.775496 0.000000
0.494342 0.775496 0.000000
0.528178 0.775496 0.000000
0.562415 0.775496 0.000000
0.597040 0.775496 0.000000
0.632036 0.775496 0.000000
0.667392 0.775496 0.000000
0.703095 0.775496 0.000000
0.739133 0.775496 0.000000
0.775496 0.775496 0.000000
