assets/luts/qt_gamma_comp_50.cube
TITLE "qt_gamma_comp_50"
LUT_3D_SIZE 33
DOMAIN_MIN 0.0 0.0 0.0
DOMAIN_MAX 1.0 1.0 1.0
0.000000 0.000000 0.000000
0.021600 0.000000 0.000000
0.046512 0.000000 0.000000
0.072848 0.000000 0.000000
0.100155 0.000000 0.000000
0.128206 0.000000 0.000000
0.156866 0.000000 0.000000
0.186041 0.000000 0.000000
0.215665 0.000000 0.000000
0.245688 0.000000 0.000000
0.276069 0.000000 0.000000
0.306776 0.000000 0.000000
0.337783 0.000000 0.000000
0.369066 0.000000 0.000000
0.400607 0.000000 0.000000
0.432389 0.000000 0.000000
0.464398 0.000000 0.000000
0.496621 0.000000 0.000000
0.529047 0.000000 0.000000
0.561665 0.000000 0.000000
0.594467 0.000000 0.000000
0.627444 0.000000 0.000000
0.660589 0.000000 0.000000
0.693895 0.000000 0.000000
0.727356 0.000000 0.000000
0.760966 0.000000 0.000000
0.794719 0.000000 0.000000
0.828611 0.000000 0.000000
0.862637 0.000000 0.000000
0.896793 0.000000 0.000000
0.931074 0.000000 0.000000
0.965478 0.000000 0.000000
1.000000 0.000000 0.000000
0.000000 0.021600 0.000000
0.021600 0.021600 0.000000
0.046512 0.021600 0.000000
0.072848 0.021600 0.000000
0.100155 0.021600 0.000000
0.128206 0.021600 0.000000
0.156866 0.021600 0.000000
0.186041 0.021600 0.000000
0.215665 0.021600 0.000000
0.245688 0.021600 0.000000
0.276069 0.021600 0.000000
0.306776 0.021600 0.000000
0.337783 0.021600 0.000000
0.369066 0.021600 0.000000
0.400607 0.021600 0.000000
0.432389 0.021600 0.000000
0.464398 0.021600 0.000000
0.496621 0.021600 0.000000
0.529047 0.021600 0.000000
0.561665 0.021600 0.000000
0.594467 0.021600 0.000000
0.627444 0.021600 0.000000
0.660589 0.021600 0.000000
0.693895 0.021600 0.000000
0.727356 0.021600 0.000000
0.760966 0.021600 0.000000
0.794719 0.021600 0.000000
0.828611 0.021600 0.000000
0.862637 0.021600 0.000000
0.896793 0.021600 0.000000
0.931074 0.021600 0.000000
0.965478 0.021600 0.000000
1.000000 0.021600 0.000000
0.000000 0.046512 0.000000
0.021600 0.046512 0.000000
0.046512 0.046512 0.000000
0.072848 0.046512 0.000000
0.100155 0.046512 0.000000
0.128206 0.046512 0.000000
0.156866 0.046512 0.000000
0.186041 0.046512 0.000000
0.215665 0.046512 0.000000
0.245688 0.046512 0.000000
0.276069 0.046512 0.000000
0.306776 0.046512 0.000000
0.337783 0.046512 0.000000
0.369066 0.046512 0.000000
0.400607 0.046512 0.000000
0.432389 0.046512 0.000000
0.464398 0.046512 0.000000
0.496621 0.046512 0.000000
0.529047 0.046512 0.000000
0.561665 0.046512 0.000000
0.594467 0.046512 0.000000
0.627444 0.046512 0.000000
0.660589 0.046512 0.000000
0.693895 0.046512 0.000000
0.727356 0.046512 0.000000
0.760966 0.046512 0.000000
0.794719 0.046512 0.000000
0.828611 0.046512 0.000000
0.862637 0.046512 0.000000
0.896793 0.046512 0.000000
0.931074 0.046512 0.000000
0.965478 0.046512 0.000000
1.000000 0.046512 0.000000
0.000000 0.072848 0.000000
0.021600 0.072848 0.000000
0.046512 0.072848 0.000000
0.072848 0.072848 0.000000
0.100155 0.072848 0.000000
0.128206 0.072848 0.000000
0.156866 0.072848 0.000000
0.186041 0.072848 0.000000
0.215665 0.072848 0.000000
0.245688 0.072848 0.000000
0.276069 0.072848 0.000000
0.306776 0.072848 0.000000
0.337783 0.072848 0.000000
0.369066 0.072848 0.000000
0.400607 0.072848 0.000000
0.432389 0.072848 0.000000
0.464398 0.072848 0.000000
0.496621 0.072848 0.000000
0.529047 0.072848 0.000000
0.561665 0.072848 0.000000
0.594467 0.072848 0.000000
0.627444 0.072848 0.000000
0.660589 0.072848 0.000000
0.693895 0.072848 0.000000
0.727356 0.072848 0.000000
0.760966 0.072848 0.000000
0.794719 0.072848 0.000000
0.828611 0.072848 0.000000
0.862637 0.072848 0.000000
0.896793 0.072848 0.000000
0.931074 0.072848 0.000000
0.965478 0.072848 0.000000
1.000000 0.072848 0.000000
0.000000 0.100155 0.000000
0.021600 0.100155 0.000000
0.046512 0.100155 0.000000
0.072848 0.100155 0.000000
0.100155 0.100155 0.000000
0.128206 0.100155 0.000000
0.156866 0.100155 0.000000
0.186041 0.100155 0.000000
0.215665 0.100155 0.000000
0.245688 0.100155 0.000000
0.276069 0.100155 0.000000
0.306776 0.100155 0.000000
0.337783 0.100155 0.000000
0.369066 0.100155 0.000000
0.400607 0.100155 0.000000
0.432389 0.100155 0.000000
0.464398 0.100155 0.000000
0.496621 0.100155 0.000000
0.529047 0.100155 0.000000
0.561665 0.100155 0.000000
0.594467 0.100155 0.000000
0.627444 0.100155 0.000000
0.660589 0.100155 0.000000
0.693895 0.100155 0.000000
0.727356 0.100155 0.000000
0.760966 0.100155 0.000000
0.794719 0.100155 0.000000
0.828611 0.100155 0.000000
0.862637 0.100155 0.000000
0.896793 0.100155 0.000000
0.931074 0.100155 0.000000
0.965478 0.100155 0.000000
1.000000 0.100155 0.000000
0.000000 0.128206 0.000000
0.021600 0.128206 0.000000
0.046512 0.128206 0.000000
0.072848 0.128206 0.000000
0.100155 0.128206 0.000000
0.128206 0.128206 0.000000
0.156866 0.128206 0.000000
0.186041 0.128206 0.000000
0.215665 0.128206 0.000000
0.245688 0.128206 0.000000
0.276069 0.128206 0.000000
0.306776 0.128206 0.000000
0.337783 0.128206 0.000000
0.369066 0.128206 0.000000
0.400607 0.128206 0.000000
0.432389 0.128206 0.000000
0.464398 0.128206 0.000000
0.496621 0.128206 0.000000
0.529047 0.128206 0.000000
0.561665 0.128206 0.000000
0.594467 0.128206 0.000000
0.627444 0.128206 0.000000
0.660589 0.128206 0.000000
0.693895 0.128206 0.000000
0.727356 0.128206 0.000000
0.760966 0.128206 0.000000
0.794719 0.128206 0.000000
0.828611 0.128206 0.000000
0.862637 0.128206 0.000000
0.896793 0.128206 0.000000
0.931074 0.128206 0.000000
0.965478 0.128206 0.000000
1.000000 0.128206 0.000000
0.000000 0.156866 0.000000
0.021600 0.156866 0.000000
0.046512 0.156866 0.000000
0.072848 0.156866 0.000000
0.100155 0.156866 0.000000
0.128206 0.156866 0.000000
0.156866 0.156866 0.000000
0.186041 0.156866 0.000000
0.215665 0.156866 0.000000
0.245688 0.156866 0.000000
0.276069 0.156866 0.000000
0.306776 0.156866 0.000000
0.337783 0.156866 0.000000
0.369066 0.156866 0.000000
0.400607 0.156866 0.000000
0.432389 0.156866 0.000000
0.464398 0.156866 0.000000
0.496621 0.156866 0.000000
0.529047 0.156866 0.000000
0.561665 0.156866 0.000000
0.594467 0.156866 0.000000
0.627444 0.156866 0.000000
0.660589 0.156866 0.000000
0.693895 0.156866 0.000000
0.727356 0.156866 0.000000
0.760966 0.156866 0.000000
0.794719 0.156866 0.000000
0.828611 0.156866 0.000000
0.862637 0.156866 0.000000
0.896793 0.156866 0.000000
0.931074 0.156866 0.000000
0.965478 0.156866 0.000000
1.000000 0.156866 0.000000
0.000000 0.186041 0.000000
0.021600 0.186041 0.000000
0.046512 0.186041 0.000000
0.072848 0.186041 0.000000
0.100155 0.186041 0.000000
0.128206 0.186041 0.000000
0.156866 0.186041 0.000000
0.186041 0.186041 0.000000
0.215665 0.186041 0.000000
0.245688 0.186041 0.000000
0.276069 0.186041 0.000000
0.306776 0.186041 0.000000
0.337783 0.186041 0.000000
0.369066 0.186041 0.000000
0.400607 0.186041 0.000000
0.432389 0.186041 0.000000
0.464398 0.186041 0.000000
0.496621 0.186041 0.000000
0.529047 0.186041 0.000000
0.561665 0.186041 0.000000
0.594467 0.186041 0.000000
0.627444 0.186041 0.000000
0.660589 0.186041 0.000000
0.693895 0.186041 0.000000
0.727356 0.186041 0.000000
0.760966 0.186041 0.000000
0.794719 0.186041 0.000000
0.828611 0.186041 0.000000
0.862637 0.186041 0.000000
0.896793 0.186041 0.000000
0.931074 0.186041 0.000000
0.965478 0.186041 0.000000
1.000000 0.186041 0.000000
0.000000 0.215665 0.000000
0.021600 0.215665 0.000000
0.046512 0.215665 0.000000
0.072848 0.215665 0.000000
0.100155 0.215665 0.000000
0.128206 0.215665 0.000000
0.156866 0.215665 0.000000
0.186041 0.215665 0.000000
0.215665 0.215665 0.000000
0.245688 0.215665 0.000000
0.276069 0.215665 0.000000
0.306776 0.215665 0.000000
0.337783 0.215665 0.000000
0.369066 0.215665 0.000000
0.400607 0.215665 0.000000
0.432389 0.215665 0.000000
0.464398 0.215665 0.000000
0.496621 0.215665 0.000000
0.529047 0.215665 0.000000
0.561665 0.215665 0.000000
0.594467 0.215665 0.000000
0.627444 0.215665 0.000000
0.660589 0.215665 0.000000
0.693895 0.215665 0.000000
0.727356 0.215665 0.000000
0.760966 0.215665 0.000000
0.794719 0.215665 0.000000
0.828611 0.215665 0.000000
0.862637 0.215665 0.000000
0.896793 0.215665 0.000000
0.931074 0.215665 0.000000
0.965478 0.215665 0.000000
1.000000 0.215665 0.000000
0.000000 0.245688 0.000000
0.021600 0.245688 0.000000
0.046512 0.245688 0.000000
0.072848 0.245688 0.000000
0.100155 0.245688 0.000000
0.128206 0.245688 0.000000
0.156866 0.245688 0.000000
0.186041 0.245688 0.000000
0.215665 0.245688 0.000000
0.245688 0.245688 0.000000
0.276069 0.245688 0.000000
0.306776 0.245688 0.000000
0.337783 0.245688 0.000000
0.369066 0.245688 0.000000
0.400607 0.245688 0.000000
0.432389 0.245688 0.000000
0.464398 0.245688 0.000000
0.496621 0.245688 0.000000
0.529047 0.245688 0.000000
0.561665 0.245688 0.000000
0.594467 0.245688 0.000000
0.627444 0.245688 0.000000
0.660589 0.245688 0.000000
0.693895 0.245688 0.000000
0.727356 0.245688 0.000000
0.760966 0.245688 0.000000
0.794719 0.245688 0.000000
0.828611 0.245688 0.000000
0.862637 0.245688 0.000000
0.896793 0.245688 0.000000
0.931074 0.245688 0.000000
0.965478 0.245688 0.000000
1.000000 0.245688 0.000000
0.000000 0.276069 0.000000
0.021600 0.276069 0.000000
0.046512 0.276069 0.000000
0.072848 0.276069 0.000000
0.100155 0.276069 0.000000
0.128206 0.276069 0.000000
0.156866 0.276069 0.000000
0.186041 0.276069 0.000000
0.215665 0.276069 0.000000
0.245688 0.276069 0.000000
0.276069 0.276069 0.000000
0.306776 0.276069 0.000000
0.337783 0.276069 0.000000
0.369066 0.276069 0.000000
0.400607 0.276069 0.000000
0.432389 0.276069 0.000000
0.464398 0.276069 0.000000
0.496621 0.276069 0.000000
0.529047 0.276069 0.000000
0.561665 0.276069 0.000000
0.594467 0.276069 0.000000
0.627444 0.276069 0.000000
0.660589 0.276069 0.000000
0.693895 0.276069 0.000000
0.727356 0.276069 0.000000
0.760966 0.276069 0.000000
0.794719 0.276069 0.000000
0.828611 0.276069 0.000000
0.862637 0.276069 0.000000
0.896793 0.276069 0.000000
0.931074 0.276069 0.000000
0.965478 0.276069 0.000000
1.000000 0.276069 0.000000
0.000000 0.306776 0.000000
0.021600 0.306776 0.000000
0.046512 0.306776 0.000000
0.072848 0.306776 0.000000
0.100155 0.306776 0.000000
0.128206 0.306776 0.000000
0.156866 0.306776 0.000000
0.186041 0.306776 0.000000
0.215665 0.306776 0.000000
0.245688 0.306776 0.000000
0.276069 0.306776 0.000000
0.306776 0.306776 0.000000
0.337783 0.306776 0.000000
0.369066 0.306776 0.000000
0.400607 0.306776 0.000000
0.432389 0.306776 0.000000
0.464398 0.306776 0.000000
0.496621 0.306776 0.000000
0.529047 0.306776 0.000000
0.561665 0.306776 0.000000
0.594467 0.306776 0.000000
0.627444 0.306776 0.000000
0.660589 0.306776 0.000000
0.693895 0.306776 0.000000
0.727356 0.306776 0.000000
0.760966 0.306776 0.000000
0.794719 0.306776 0.000000
0.828611 0.306776 0.000000
0.862637 0.306776 0.000000
0.896793 0.306776 0.000000
0.931074 0.306776 0.000000
0.965478 0.306776 0.000000
1.000000 0.306776 0.000000
0.000000 0.337783 0.000000
0.021600 0.337783 0.000000
0.046512 0.337783 0.000000
0.072848 0.337783 0.000000
0.100155 0.337783 0.000000
0.128206 0.337783 0.000000
0.156866 0.337783 0.000000
0.186041 0.337783 0.000000
0.215665 0.337783 0.000000
0.245688 0.337783 0.000000
0.276069 0.337783 0.000000
0.306776 0.337783 0.000000
0.337783 0.337783 0.000000
0.369066 0.337783 0.000000
0.400607 0.337783 0.000000
0.432389 0.337783 0.000000
0.464398 0.337783 0.000000
0.496621 0.337783 0.000000
0.529047 0.337783 0.000000
0.561665 0.337783 0.000000
0.594467 0.337783 0.000000
0.627444 0.337783 0.000000
0.660589 0.337783 0.000000
0.693895 0.337783 0.000000
0.727356 0.337783 0.000000
0.760966 0.337783 0.000000
0.794719 0.337783 0.000000
0.828611 0.337783 0.000000
0.862637 0.337783 0.000000
0.896793 0.337783 0.000000
0.931074 0.337783 0.000000
0.965478 0.337783 0.000000
1.000000 0.337783 0.000000
0.000000 0.369066 0.000000
0.021600 0.369066 0.000000
0.046512 0.369066 0.000000
0.072848 0.369066 0.000000
0.100155 0.369066 0.000000
0.128206 0.369066 0.000000
0.156866 0.369066 0.000000
0.186041 0.369066 0.000000
0.215665 0.369066 0.000000
0.245688 0.369066 0.000000
0.276069 0.369066 0.000000
0.306776 0.369066 0.000000
0.337783 0.369066 0.000000
0.369066 0.369066 0.000000
0.400607 0.369066 0.000000
0.432389 0.369066 0.000000
0.464398 0.369066 0.000000
0.496621 0.369066 0.000000
0.529047 0.369066 0.000000
0.561665 0.369066 0.000000
0.594467 0.369066 0.000000
0.627444 0.369066 0.000000
0.660589 0.369066 0.000000
0.693895 0.369066 0.000000
0.727356 0.369066 0.000000
0.760966 0.369066 0.000000
0.794719 0.369066 0.000000
0.828611 0.369066 0.000000
0.862637 0.369066 0.000000
0.896793 0.369066 0.000000
0.931074 0.369066 0.000000
0.965478 0.369066 0.000000
1.000000 0.369066 0.000000
0.000000 0.400607 0.000000
0.021600 0.400607 0.000000
0.046512 0.400607 0.000000
0.072848 0.400607 0.000000
0.100155 0.400607 0.000000
0.128206 0.400607 0.000000
0.156866 0.400607 0.000000
0.186041 0.400607 0.000000
0.215665 0.400607 0.000000
0.245688 0.400607 0.000000
0.276069 0.400607 0.000000
0.306776 0.400607 0.000000
0.337783 0.400607 0.000000
0.369066 0.400607 0.000000
0.400607 0.400607 0.000000
0.432389 0.400607 0.000000
0.464398 0.400607 0.000000
0.496621 0.400607 0.000000
0.529047 0.400607 0.000000
0.561665 0.400607 0.000000
0.594467 0.400607 0.000000
0.627444 0.400607 0.000000
0.660589 0.400607 0.000000
0.693895 0.400607 0.000000
0.727356 0.400607 0.000000
0.760966 0.400607 0.000000
0.794719 0.400607 0.000000
0.828611 0.400607 0.000000
0.862637 0.400607 0.000000
0.896793 0.400607 0.000000
0.931074 0.400607 0.000000
0.965478 0.400607 0.000000
1.000000 0.400607 0.000000
0.000000 0.432389 0.000000
0.021600 0.432389 0.000000
0.046512 0.432389 0.000000
0.072848 0.432389 0.000000
0.100155 0.432389 0.000000
0.128206 0.432389 0.000000
0.156866 0.432389 0.000000
0.186041 0.432389 0.000000
0.215665 0.432389 0.000000
0.245688 0.432389 0.000000
0.276069 0.432389 0.000000
0.306776 0.432389 0.000000
0.337783 0.432389 0.000000
0.369066 0.432389 0.000000
0.400607 0.432389 0.000000
0.432389 0.432389 0.000000
0.464398 0.432389 0.000000
0.496621 0.432389 0.000000
0.529047 0.432389 0.000000
0.561665 0.432389 0.000000
0.594467 0.432389 0.000000
0.627444 0.432389 0.000000
0.660589 0.432389 0.000000
0.693895 0.432389 0.000000
0.727356 0.432389 0.000000
0.760966 0.432389 0.000000
0.794719 0.432389 0.000000
0.828611 0.432389 0.000000
0.862637 0.432389 0.000000
0.896793 0.432389 0.000000
0.931074 0.432389 0.000000
0.965478 0.432389 0.000000
1.000000 0.432389 0.000000
0.000000 0.464398 0.000000
0.021600 0.464398 0.000000
0.046512 0.464398 0.000000
0.072848 0.464398 0.000000
0.100155 0.464398 0.000000
0.128206 0.464398 0.000000
0.156866 0.464398 0.000000
0.186041 0.464398 0.000000
0.215665 0.464398 0.000000
0.245688 0.464398 0.000000
0.276069 0.464398 0.000000
0.306776 0.464398 0.000000
0.337783 0.464398 0.000000
0.369066 0.464398 0.000000
0.400607 0.464398 0.000000
0.432389 0.464398 0.000000
0.464398 0.464398 0.000000
0.496621 0.464398 0.000000
0.529047 0.464398 0.000000
0.561665 0.464398 0.000000
0.594467 0.464398 0.000000
0.627444 0.464398 0.000000
0.660589 0.464398 0.000000
0.693895 0.464398 0.000000
0.727356 0.464398 0.000000
0.760966 0.464398 0.000000
0.794719 0.464398 0.000000
0.828611 0.464398 0.000000
0.862637 0.464398 0.000000
0.896793 0.464398 0.000000
0.931074 0.464398 0.000000
0.965478 0.464398 0.000000
1.000000 0.464398 0.000000
0.000000 0.496621 0.000000
0.021600 0.496621 0.000000
0.046512 0.496621 0.000000
0.072848 0.496621 0.000000
0.100155 0.496621 0.000000
0.128206 0.496621 0.000000
0.156866 0.496621 0.000000
0.186041 0.496621 0.000000
0.215665 0.496621 0.000000
0.245688 0.496621 0.000000
0.276069 0.496621 0.000000
0.306776 0.496621 0.000000
0.337783 0.496621 0.000000
0.369066 0.496621 0.000000
0.400607 0.496621 0.000000
0.432389 0.496621 0.000000
0.464398 0.496621 0.000000
0.496621 0.496621 0.000000
0.529047 0.496621 0.000000
0.561665 0.496621 0.000000
0.594467 0.496621 0.000000
0.627444 0.496621 0.000000
0.660589 0.496621 0.000000
0.693895 0.496621 0.000000
0.727356 0.496621 0.000000
0.760966 0.496621 0.000000
0.794719 0.496621 0.000000
0.828611 0.496621 0.000000
0.862637 0.496621 0.000000
0.896793 0.496621 0.000000
0.931074 0.496621 0.000000
0.965478 0.496621 0.000000
1.000000 0.496621 0.000000
0.000000 0.529047 0.000000
0.021600 0.529047 0.000000
0.046512 0.529047 0.000000
0.072848 0.529047 0.000000
0.100155 0.529047 0.000000
0.128206 0.529047 0.000000
0.156866 0.529047 0.000000
0.186041 0.529047 0.000000
0.215665 0.529047 0.000000
0.245688 0.529047 0.000000
0.276069 0.529047 0.000000
0.306776 0.529047 0.000000
0.337783 0.529047 0.000000
0.369066 0.529047 0.000000
0.400607 0.529047 0.000000
0.432389 0.529047 0.000000
0.464398 0.529047 0.000000
0.496621 0.529047 0.000000
0.529047 0.529047 0.000000
0.561665 0.529047 0.000000
0.594467 0.529047 0.000000
0.627444 0.529047 0.000000
0.660589 0.529047 0.000000
0.693895 0.529047 0.000000
0.727356 0.529047 0.000000
0.760966 0.529047 0.000000
0.794719 0.529047 0.000000
0.828611 0.529047 0.000000
0.862637 0.529047 0.000000
0.896793 0.529047 0.000000
0.931074 0.529047 0.000000
0.965478 0.529047 0.000000
1.000000 0.529047 0.000000
0.000000 0.561665 0.000000
0.021600 0.561665 0.000000
0.046512 0.561665 0.000000
0.072848 0.561665 0.000000
0.100155 0.561665 0.000000
0.128206 0.561665 0.000000
0.156866 0.561665 0.000000
0.186041 0.561665 0.000000
0.215665 0.561665 0.000000
0.245688 0.561665 0.000000
0.276069 0.561665 0.000000
0.306776 0.561665 0.000000
0.337783 0.561665 0.000000
0.369066 0.561665 0.000000
0.400607 0.561665 0.000000
0.432389 0.561665 0.000000
0.464398 0.561665 0.000000
0.496621 0.561665 0.000000
0.529047 0.561665 0.000000
0.561665 0.561665 0.000000
0.594467 0.561665 0.000000
0.627444 0.561665 0.000000
0.660589 0.561665 0.000000
0.693895 0.561665 0.000000
0.727356 0.561665 0.000000
0.760966 0.561665 0.000000
0.794719 0.561665 0.000000
0.828611 0.561665 0.000000
0.862637 0.561665 0.000000
0.896793 0.561665 0.000000
0.931074 0.561665 0.000000
0.965478 0.561665 0.000000
1.000000 0.561665 0.000000
0.000000 0.594467 0.000000
0.021600 0.594467 0.000000
0.046512 0.594467 0.000000
0.072848 0.594467 0.000000
0.100155 0.594467 0.000000
0.128206 0.594467 0.000000
0.156866 0.594467 0.000000
0.186041 0.594467 0.000000
0.215665 0.594467 0.000000
0.245688 0.594467 0.000000
0.276069 0.594467 0.000000
0.306776 0.594467 0.000000
0.337783 0.594467 0.000000
0.369066 0.594467 0.000000
0.400607 0.594467 0.000000
0.432389 0.594467 0.000000
0.464398 0.594467 0.000000
0.496621 0.594467 0.000000
0.529047 0.594467 0.000000
0.561665 0.594467 0.000000
0.594467 0.594467 0.000000
0.627444 0.594467 0.000000
0.660589 0.594467 0.000000
0.693895 0.594467 0.000000
0.727356 0.594467 0.000000
0.760966 0.594467 0.000000
0.794719 0.594467 0.000000
0.828611 0.594467 0.000000
0.862637 0.594467 0.000000
0.896793 0.594467 0.000000
0.931074 0.594467 0.000000
0.965478 0.594467 0.000000
1.000000 0.594467 0.000000
0.000000 0.627444 0.000000
0.021600 0.627444 0.000000
0.046512 0.627444 0.000000
0.072848 0.627444 0.000000
0.100155 0.627444 0.000000
0.128206 0.627444 0.000000
0.156866 0.627444 0.000000
0.186041 0.627444 0.000000
0.215665 0.627444 0.000000
0.245688 0.627444 0.000000
0.276069 0.627444 0.000000
0.306776 0.627444 0.000000
0.337783 0.627444 0.000000
0.369066 0.627444 0.000000
0.400607 0.627444 0.000000
0.432389 0.627444 0.000000
0.464398 0.627444 0.000000
0.496621 0.627444 0.000000
0.529047 0.627444 0.000000
0.561665 0.627444 0.000000
0.594467 0.627444 0.000000
0.627444 0.627444 0.000000
0.660589 0.627444 0.000000
0.693895 0.627444 0.000000
0.727356 0.627444 0.000000
0.760966 0.627444 0.000000
0.794719 0.627444 0.000000
0.828611 0.627444 0.000000
0.862637 0.627444 0.000000
0.896793 0.627444 0.000000
0.931074 0.627444 0.000000
0.965478 0.627444 0.000000
1.000000 0.627444 0.000000
0.000000 0.660589 0.000000
0.021600 0.660589 0.000000
0.046512 0.660589 0.000000
0.072848 0.660589 0.000000
0.100155 0.660589 0.000000
0.128206 0.660589 0.000000
0.156866 0.660589 0.000000
0.186041 0.660589 0.000000
0.215665 0.660589 0.000000
0.245688 0.660589 0.000000
0.276069 0.660589 0.000000
0.306776 0.660589 0.000000
0.337783 0.660589 0.000000
0.369066 0.660589 0.000000
0.400607 0.660589 0.000000
0.432389 0.660589 0.000000
0.464398 0.660589 0.000000
0.496621 0.660589 0.000000
0.529047 0.660589 0.000000
0.561665 0.660589 0.000000
0.594467 0.660589 0.000000
0.627444 0.660589 0.000000
0.660589 0.660589 0.000000
0.693895 0.660589 0.000000
0.727356 0.660589 0.000000
0.760966 0.660589 0.000000
0.794719 0.660589 0.000000
0.828611 0.660589 0.000000
0.862637 0.660589 0.000000
0.896793 0.660589 0.000000
0.931074 0.660589 0.000000
0.965478 0.660589 0.000000
1.000000 0.660589 0.000000
0.000000 0.693895 0.000000
0.021600 0.693895 0.000000
0.046512 0.693895 0.000000
0.072848 0.693895 0.000000
0.100155 0.693895 0.000000
0.128206 0.693895 0.000000
0.156866 0.693895 0.000000
0.186041 0.693895 0.000000
0.215665 0.693895 0.000000
0.245688 0.693895 0.000000
0.276069 0.693895 0.000000
0.306776 0.693895 0.000000
0.337783 0.693895 0.000000
0.369066 0.693895 0.000000
0.400607 0.693895 0.000000
0.432389 0.693895 0.000000
0.464398 0.693895 0.000000
0.496621 0.693895 0.000000
0.529047 0.693895 0.000000
0.561665 0.693895 0.000000
0.594467 0.693895 0.000000
0.627444 0.693895 0.000000
0.660589 0.693895 0.000000
0.693895 0.693895 0.000000
0.727356 0.693895 0.000000
0.760966 0.693895 0.000000
0.794719 0.693895 0.000000
0.828611 0.693895 0.000000
0.862637 0.693895 0.000000
0.896793 0.693895 0.000000
0.931074 0.693895 0.000000
0.965478 0.693895 0.000000
1.000000 0.693895 0.000000
0.000000 0.727356 0.000000
0.021600 0.727356 0.000000
0.046512 0.727356 0.000000
0.072848 0.727356 0.000000
0.100155 0.727356 0.000000
0.128206 0.727356 0.000000
0.156866 0.727356 0.000000
0.186041 0.727356 0.000000
0.215665 0.727356 0.000000
0.245688 0.727356 0.000000
0.276069 0.727356 0.000000
0.306776 0.727356 0.000000
0.337783 0.727356 0.000000
0.369066 0.727356 0.000000
0.400607 0.727356 0.000000
0.432389 0.727356 0.000000
0.464398 0.727356 0.000000
0.496621 0.727356 0.000000
0.529047 0.727356 0.000000
0.561665 0.727356 0.000000
0.594467 0.727356 0.000000
0.627444 0.727356 0.000000
0.660589 0.727356 0.000000
0.693895 0.727356 0.000000
0.727356 0.727356 0.000000
0.760966 0.727356 0.000000
0.794719 0.727356 0.000000
0.828611 0.727356 0.000000
0.862637 0.727356 0.000000
0.896793 0.727356 0.000000
0.931074 0.727356 0.000000
0.965478 0.727356 0.000000
1.000000 0.727356 0.000000
0.000000 0.760966 0.000000
0.021600 0.760966 0.000000
0.046512 0.760966 0.000000
0.072848 0.760966 0.000000
0.100155 0.760966 0.000000
0.128206 0.760966 0.000000
0.156866 0.760966 0.000000
0.186041 0.760966 0.000000
0.215665 0.760966 0.000000
0.245688 0.760966 0.000000
0.276069 0.760966 0.000000
0.306776 0.760966 0.000000
0.337783 0.760966 0.000000
0.369066 0.760966 0.000000
0.400607 0.760966 0.000000
0.432389 0.760966 0.000000
0.464398 0.760966 0.000000
0.496621 0.760966 0.000000
0.529047 0.760966 0.000000
0.561665 0.760966 0.000000
0.594467 0.760966 0.000000
0.627444 0.760966 0.000000
0.660589 0.760966 0.000000
0.693895 0.760966 0.000000
0.727356 0.760966 0.000000
0.760966 0.760966 0.000000
0.794719 0.760966 0.000000
0.828611 0.760966 0.000000
0.862637 0.760966 0.000000
0.896793 0.760966 0.000000
0.931074 0.760966 0.000000
0.965478 0.760966 0.000000
1.000000 0.760966 0.000000
0.000000 0.794719 0.000000
0.021600 0.794719 0.000000
0.046512 0.794719 0.000000
0.072848 0.794719 0.000000
0.100155 0.794719 0.000000
0.128206 0.794719 0.000000
0.156866 0.794719 0.000000
0.186041 0.794719 0.000000
0.215665 0.794719 0.000000
0.245688 0.794719 0.000000
0.276069 0.794719 0.000000
0.306776 0.794719 0.000000
0.337783 0.794719 0.000000
0.369066 0.794719 0.000000
0.400607 0.794719 0.000000
0.432389 0.794719 0.000000
0.464398 0.794719 0.000000
0.496621 0.794719 0.000000
0.529047 0.794719 0.000000
0.561665 0.794719 0.000000
0.594467 0.794719 0.000000
0.627444 0.794719 0.000000
0.660589 0.794719 0.000000
0.693895 0.794719 0.000000
0.727356 0.794719 0.000000
0.760966 0.794719 0.000000
0.794719 0.794719 0.000000
