assets/luts/qt_gamma_comp_50.cube
TITLE "qt_gamma_comp_50"
LUT_3D_SIZE 5
DOMAIN_MIN 0.0 0.0 0.0
DOMAIN_MAX 1.0 1.0 1.0
0.000000 0.000000 0.000000
0.215665 0.000000 0.000000
0.464398 0.000000 0.000000
0.727356 0.000000 0.000000
1.000000 0.000000 0.000000
0.000000 0.215665 0.000000
0.215665 0.215665 0.000000
0.464398 0.215665 0.000000
0.727356 0.215665 0.000000
1.000000 0.215665 0.000000
0.000000 0.464398 0.000000
0.215665 0.464398 0.000000
0.464398 0.464398 0.000000
0.727356 0.464398 0.000000
1.000000 0.464398 0.000000
0.000000 0.727356 0.000000
0.215665 0.727356 0.000000
0.464398 0.727356 0.000000
0.727356 0.727356 0.000000
1.000000 0.727356 0.000000
0.000000 1.000000 0.000000
0.215665 1.000000 0.000000
0.464398 1.000000 0.000000
0.727356 1.000000 0.000000
1.000000 1.000000 0.000000
0.000000 0.000000 0.215665
0.215665 0.000000 0.215665
0.464398 0.000000 0.215665
0.727356 0.000000 0.215665
1.000000 0.000000 0.215665
0.000000 0.215665 0.215665
0.215665 0.215665 0.215665
0.464398 0.215665 0.215665
0.727356 0.215665 0.215665
1.000000 0.215665 0.215665
0.000000 0.464398 0.215665
0.215665 0.464398 0.215665
0.464398 0.464398 0.215665
0.727356 0.464398 0.215665
1.000000 0.464398 0.215665
0.000000 0.727356 0.215665
0.215665 0.727356 0.215665
0.464398 0.727356 0.215665
0.727356 0.727356 0.215665
1.000000 0.727356 0.215665
0.000000 1.000000 0.215665
0.215665 1.000000 0.215665
0.464398 1.000000 0.215665
0.727356 1.000000 0.215665
1.000000 1.000000 0.215665
0.000000 0.000000 0.464398
0.215665 0.000000 0.464398
0.464398 0.000000 0.464398
0.727356 0.000000 0.464398
1.000000 0.000000 0.464398
0.000000 0.215665 0.464398
0.215665 0.215665 0.464398
0.464398 0.215665 0.464398
0.727356 0.215665 0.464398
1.000000 0.215665 0.464398
0.000000 0.464398 0.464398
0.215665 0.464398 0.464398
0.464398 0.464398 0.464398
0.727356 0.464398 0.464398
1.000000 0.464398 0.464398
0.000000 0.727356 0.464398
0.215665 0.727356 0.464398
0.464398 0.727356 0.464398
0.727356 0.727356 0.464398
1.000000 0.727356 0.464398
0.000000 1.000000 0.464398
0.215665 1.000000 0.464398
0.464398 1.000000 0.464398
0.727356 1.000000 0.464398
1.000000 1.000000 0.464398
0.000000 0.000000 0.727356
0.215665 0.000000 0.727356
0.464398 0.000000 0.727356
0.727356 0.000000 0.727356
1.000000 0.000000 0.727356
0.000000 0.215665 0.727356
0.215665 0.215665 0.727356
0.464398 0.215665 0.727356
0.727356 0.215665 0.727356
1.000000 0.215665 0.727356
0.000000 0.464398 0.727356
0.215665 0.464398 0.727356
0.464398 0.464398 0.727356
0.727356 0.464398 0.727356
1.000000 0.464398 0.727356
0.000000 0.727356 0.727356
0.215665 0.727356 0.727356
0.464398 0.727356 0.727356
0.727356 0.727356 0.727356
1.000000 0.727356 0.727356
0.000000 1.000000 0.727356
0.215665 1.000000 0.727356
0.464398 1.000000 0.727356
0.727356 1.000000 0.727356
1.000000 1.000000 0.727356
0.000000 0.000000 1.000000
0.215665 0.000000 1.000000
0.464398 0.000000 1.000000
0.727356 0.000000 1.000000
1.000000 0.000000 1.000000
0.000000 0.215665 1.000000
0.215665 0.215665 1.000000
0.464398 0.215665 1.000000
0.727356 0.215665 1.000000
1.000000 0.215665 1.000000
0.000000 0.464398 1.000000
0.215665 0.464398 1.000000
0.464398 0.464398 1.000000
0.727356 0.464398 1.000000
1.000000 0.464398 1.000000
0.000000 0.727356 1.000000
0.215665 0.727356 1.000000
0.464398 0.727356 1.000000
0.727356 0.727356 1.000000
1.000000 0.727356 1.000000
0.000000 1.000000 1.000000
0.215665 1.000000 1.000000
0.464398 1.000000 1.000000
0.727356 1.000000 1.000000
1.000000 1.000000 1.000000
