assets/luts/qt_gamma_comp_100.cube
TITLE "qt_gamma_comp_100"
LUT_3D_SIZE 5
DOMAIN_MIN 0.0 0.0 0.0
DOMAIN_MAX 1.0 1.0 1.0
0.000000 0.000000 0.000000
0.183140 0.000000 0.000000
0.427949 0.000000 0.000000
0.703095 0.000000 0.000000
1.000000 0.000000 0.000000
0.000000 0.183140 0.000000
0.183140 0.183140 0.000000
0.427949 0.183140 0.000000
0.703095 0.183140 0.000000
1.000000 0.183140 0.000000
0.000000 0.427949 0.000000
0.183140 0.427949 0.000000
0.427949 0.427949 0.000000
0.703095 0.427949 0.000000
1.000000 0.427949 0.000000
0.000000 0.703095 0.000000
0.183140 0.703095 0.000000
0.427949 0.703095 0.000000
0.703095 0.703095 0.000000
1.000000 0.703095 0.000000
0.000000 1.000000 0.000000
0.183140 1.000000 0.000000
0.427949 1.000000 0.000000
0.703095 1.000000 0.000000
1.000000 1.000000 0.000000
0.000000 0.000000 0.183140
0.183140 0.000000 0.183140
0.427949 0.000000 0.183140
0.703095 0.000000 0.183140
1.000000 0.000000 0.183140
0.000000 0.183140 0.183140
0.183140 0.183140 0.183140
0.427949 0.183140 0.183140
0.703095 0.183140 0.183140
1.000000 0.183140 0.183140
0.000000 0.427949 0.183140
0.183140 0.427949 0.183140
0.427949 0.427949 0.183140
0.703095 0.427949 0.183140
1.000000 0.427949 0.183140
0.000000 0.703095 0.183140
0.183140 0.703095 0.183140
0.427949 0.703095 0.183140
0.703095 0.703095 0.183140
1.000000 0.703095 0.183140
0.000000 1.000000 0.183140
0.183140 1.000000 0.183140
0.427949 1.000000 0.183140
0.703095 1.000000 0.183140
1.000000 1.000000 0.183140
0.000000 0.000000 0.427949
0.183140 0.000000 0.427949
0.427949 0.000000 0.427949
0.703095 0.000000 0.427949
1.000000 0.000000 0.427949
0.000000 0.183140 0.427949
0.183140 0.183140 0.427949
0.427949 0.183140 0.427949
0.703095 0.183140 0.427949
1.000000 0.183140 0.427949
0.000000 0.427949 0.427949
0.183140 0.427949 0.427949
0.427949 0.427949 0.427949
0.703095 0.427949 0.427949
1.000000 0.427949 0.427949
0.000000 0.703095 0.427949
0.183140 0.703095 0.427949
0.427949 0.703095 0.427949
0.703095 0.703095 0.427949
1.000000 0.703095 0.427949
0.000000 1.000000 0.427949
0.183140 1.000000 0.427949
0.427949 1.000000 0.427949
0.703095 1.000000 0.427949
1.000000 1.000000 0.427949
0.000000 0.000000 0.703095
0.183140 0.000000 0.703095
0.427949 0.000000 0.703095
0.703095 0.000000 0.703095
1.000000 0.000000 0.703095
0.000000 0.183140 0.703095
0.183140 0.183140 0.703095
0.427949 0.183140 0.703095
0.703095 0.183140 0.703095
1.000000 0.183140 0.703095
0.000000 0.427949 0.703095
0.183140 0.427949 0.703095
0.427949 0.427949 0.703095
0.703095 0.427949 0.703095
1.000000 0.427949 0.703095
0.000000 0.703095 0.703095
0.183140 0.703095 0.703095
0.427949 0.703095 0.703095
0.703095 0.703095 0.703095
1.000000 0.703095 0.703095
0.000000 1.000000 0.703095
0.183140 1.000000 0.703095
0.427949 1.000000 0.703095
0.703095 1.000000 0.703095
1.000000 1.000000 0.703095
0.000000 0.000000 1.000000
0.183140 0.000000 1.000000
0.427949 0.000000 1.000000
0.703095 0.000000 1.000000
1.000000 0.000000 1.000000
0.000000 0.183140 1.000000
0.183140 0.183140 1.000000
0.427949 0.183140 1.000000
0.703095 0.183140 1.000000
1.000000 0.183140 1.000000
0.000000 0.427949 1.000000
0.183140 0.427949 1.000000
0.427949 0.427949 1.000000
0.703095 0.427949 1.000000
1.000000 0.427949 1.000000
0.000000 0.703095 1.000000
0.183140 0.703095 1.000000
0.427949 0.703095 1.000000
0.703095 0.703095 1.000000
1.000000 0.703095 1.000000
0.000000 1.000000 1.000000
0.183140 1.000000 1.000000
0.427949 1.000000 1.000000
0.703095 1.000000 1.000000
1.000000 1.000000 1.000000
