assets/luts/qt_gamma_comp_50.cube
TITLE "qt_gamma_comp_50"
LUT_3D_SIZE 9
DOMAIN_MIN 0.0 0.0 0.0
DOMAIN_MAX 1.0 1.0 1.0
0.000000 0.000000 0.000000
0.100155 0.000000 0.000000
0.215665 0.000000 0.000000
0.337783 0.000000 0.000000
0.464398 0.000000 0.000000
0.594467 0.000000 0.000000
0.727356 0.000000 0.000000
0.862637 0.000000 0.000000
1.000000 0.000000 0.000000
0.000000 0.100155 0.000000
0.100155 0.100155 0.000000
0.215665 0.100155 0.000000
0.337783 0.100155 0.000000
0.464398 0.100155 0.000000
0.594467 0.100155 0.000000
0.727356 0.100155 0.000000
0.862637 0.100155 0.000000
1.000000 0.100155 0.000000
0.000000 0.215665 0.000000
0.100155 0.215665 0.000000
0.215665 0.215665 0.000000
0.337783 0.215665 0.000000
0.464398 0.215665 0.000000
0.594467 0.215665 0.000000
0.727356 0.215665 0.000000
0.862637 0.215665 0.000000
1.000000 0.215665 0.000000
0.000000 0.337783 0.000000
0.100155 0.337783 0.000000
0.215665 0.337783 0.000000
0.337783 0.337783 0.000000
0.464398 0.337783 0.000000
0.594467 0.337783 0.000000
0.727356 0.337783 0.000000
0.862637 0.337783 0.000000
1.000000 0.337783 0.000000
0.000000 0.464398 0.000000
0.100155 0.464398 0.000000
0.215665 0.464398 0.000000
0.337783 0.464398 0.000000
0.464398 0.464398 0.000000
0.594467 0.464398 0.000000
0.727356 0.464398 0.000000
0.862637 0.464398 0.000000
1.000000 0.464398 0.000000
0.000000 0.594467 0.000000
0.100155 0.594467 0.000000
0.215665 0.594467 0.000000
0.337783 0.594467 0.000000
0.464398 0.594467 0.000000
0.594467 0.594467 0.000000
0.727356 0.594467 0.000000
0.862637 0.594467 0.000000
1.000000 0.594467 0.000000
0.000000 0.727356 0.000000
0.100155 0.727356 0.000000
0.215665 0.727356 0.000000
0.337783 0.727356 0.000000
0.464398 0.727356 0.000000
0.594467 0.727356 0.000000
0.727356 0.727356 0.000000
0.862637 0.727356 0.000000
1.000000 0.727356 0.000000
0.000000 0.862637 0.000000
0.100155 0.862637 0.000000
0.215665 0.862637 0.000000
0.337783 0.862637 0.000000
0.464398 0.862637 0.000000
0.594467 0.862637 0.000000
0.727356 0.862637 0.000000
0.862637 0.862637 0.000000
1.000000 0.862637 0.000000
0.000000 1.000000 0.000000
0.100155 1.000000 0.000000
0.215665 1.000000 0.000000
0.337783 1.000000 0.000000
0.464398 1.000000 0.000000
0.594467 1.000000 0.000000
0.727356 1.000000 0.000000
0.862637 1.000000 0.000000
1.000000 1.000000 0.000000
0.000000 0.000000 0.100155
0.100155 0.000000 0.100155
0.215665 0.000000 0.100155
0.337783 0.000000 0.100155
0.464398 0.000000 0.100155
0.594467 0.000000 0.100155
0.727356 0.000000 0.100155
0.862637 0.000000 0.100155
1.000000 0.000000 0.100155
0.000000 0.100155 0.100155
0.100155 0.100155 0.100155
0.215665 0.100155 0.100155
0.337783 0.100155 0.100155
0.464398 0.100155 0.100155
0.594467 0.100155 0.100155
0.727356 0.100155 0.100155
0.862637 0.100155 0.100155
1.000000 0.100155 0.100155
0.000000 0.215665 0.100155
0.100155 0.215665 0.100155
0.215665 0.215665 0.100155
0.337783 0.215665 0.100155
0.464398 0.215665 0.100155
0.594467 0.215665 0.100155
0.727356 0.215665 0.100155
0.862637 0.215665 0.100155
1.000000 0.215665 0.100155
0.000000 0.337783 0.100155
0.100155 0.337783 0.100155
0.215665 0.337783 0.100155
0.337783 0.337783 0.100155
0.464398 0.337783 0.100155
0.594467 0.337783 0.100155
0.727356 0.337783 0.100155
0.862637 0.337783 0.100155
1.000000 0.337783 0.100155
0.000000 0.464398 0.100155
0.100155 0.464398 0.100155
0.215665 0.464398 0.100155
0.337783 0.464398 0.100155
0.464398 0.464398 0.100155
0.594467 0.464398 0.100155
0.727356 0.464398 0.100155
0.862637 0.464398 0.100155
1.000000 0.464398 0.100155
0.000000 0.594467 0.100155
0.100155 0.594467 0.100155
0.215665 0.594467 0.100155
0.337783 0.594467 0.100155
0.464398 0.594467 0.100155
0.594467 0.594467 0.100155
0.727356 0.594467 0.100155
0.862637 0.594467 0.100155
1.000000 0.594467 0.100155
0.000000 0.727356 0.100155
0.100155 0.727356 0.100155
0.215665 0.727356 0.100155
0.337783 0.727356 0.100155
0.464398 0.727356 0.100155
0.594467 0.727356 0.100155
0.727356 0.727356 0.100155
0.862637 0.727356 0.100155
1.000000 0.727356 0.100155
0.000000 0.862637 0.100155
0.100155 0.862637 0.100155
0.215665 0.862637 0.100155
0.337783 0.862637 0.100155
0.464398 0.862637 0.100155
0.594467 0.862637 0.100155
0.727356 0.862637 0.100155
0.862637 0.862637 0.100155
1.000000 0.862637 0.100155
0.000000 1.000000 0.100155
0.100155 1.000000 0.100155
0.215665 1.000000 0.100155
0.337783 1.000000 0.100155
0.464398 1.000000 0.100155
0.594467 1.000000 0.100155
0.727356 1.000000 0.100155
0.862637 1.000000 0.100155
1.000000 1.000000 0.100155
0.000000 0.000000 0.215665
0.100155 0.000000 0.215665
0.215665 0.000000 0.215665
0.337783 0.000000 0.215665
0.464398 0.000000 0.215665
0.594467 0.000000 0.215665
0.727356 0.000000 0.215665
0.862637 0.000000 0.215665
1.000000 0.000000 0.215665
0.000000 0.100155 0.215665
0.100155 0.100155 0.215665
0.215665 0.100155 0.215665
0.337783 0.100155 0.215665
0.464398 0.100155 0.215665
0.594467 0.100155 0.215665
0.727356 0.100155 0.215665
0.862637 0.100155 0.215665
1.000000 0.100155 0.215665
0.000000 0.215665 0.215665
0.100155 0.215665 0.215665
0.215665 0.215665 0.215665
0.337783 0.215665 0.215665
0.464398 0.215665 0.215665
0.594467 0.215665 0.215665
0.727356 0.215665 0.215665
0.862637 0.215665 0.215665
1.000000 0.215665 0.215665
0.000000 0.337783 0.215665
0.100155 0.337783 0.215665
0.215665 0.337783 0.215665
0.337783 0.337783 0.215665
0.464398 0.337783 0.215665
0.594467 0.337783 0.215665
0.727356 0.337783 0.215665
0.862637 0.337783 0.215665
1.000000 0.337783 0.215665
0.000000 0.464398 0.215665
0.100155 0.464398 0.215665
0.215665 0.464398 0.215665
0.337783 0.464398 0.215665
0.464398 0.464398 0.215665
0.594467 0.464398 0.215665
0.727356 0.464398 0.215665
0.862637 0.464398 0.215665
1.000000 0.464398 0.215665
0.000000 0.594467 0.215665
0.100155 0.594467 0.215665
0.215665 0.594467 0.215665
0.337783 0.594467 0.215665
0.464398 0.594467 0.215665
0.594467 0.594467 0.215665
0.727356 0.594467 0.215665
0.862637 0.594467 0.215665
1.000000 0.594467 0.215665
0.000000 0.727356 0.215665
0.100155 0.727356 0.215665
0.215665 0.727356 0.215665
0.337783 0.727356 0.215665
0.464398 0.727356 0.215665
0.594467 0.727356 0.215665
0.727356 0.727356 0.215665
0.862637 0.727356 0.215665
1.000000 0.727356 0.215665
0.000000 0.862637 0.215665
0.100155 0.862637 0.215665
0.215665 0.862637 0.215665
0.337783 0.862637 0.215665
0.464398 0.862637 0.215665
0.594467 0.862637 0.215665
0.727356 0.862637 0.215665
0.862637 0.862637 0.215665
1.000000 0.862637 0.215665
0.000000 1.000000 0.215665
0.100155 1.000000 0.215665
0.215665 1.000000 0.215665
0.337783 1.000000 0.215665
0.464398 1.000000 0.215665
0.594467 1.000000 0.215665
0.727356 1.000000 0.215665
0.862637 1.000000 0.215665
1.000000 1.000000 0.215665
0.000000 0.000000 0.337783
0.100155 0.000000 0.337783
0.215665 0.000000 0.337783
0.337783 0.000000 0.337783
0.464398 0.000000 0.337783
0.594467 0.000000 0.337783
0.727356 0.000000 0.337783
0.862637 0.000000 0.337783
1.000000 0.000000 0.337783
0.000000 0.100155 0.337783
0.100155 0.100155 0.337783
0.215665 0.100155 0.337783
0.337783 0.100155 0.337783
0.464398 0.100155 0.337783
0.594467 0.100155 0.337783
0.727356 0.100155 0.337783
0.862637 0.100155 0.337783
1.000000 0.100155 0.337783
0.000000 0.215665 0.337783
0.100155 0.215665 0.337783
0.215665 0.215665 0.337783
0.337783 0.215665 0.337783
0.464398 0.215665 0.337783
0.594467 0.215665 0.337783
0.727356 0.215665 0.337783
0.862637 0.215665 0.337783
1.000000 0.215665 0.337783
0.000000 0.337783 0.337783
0.100155 0.337783 0.337783
0.215665 0.337783 0.337783
0.337783 0.337783 0.337783
0.464398 0.337783 0.337783
0.594467 0.337783 0.337783
0.727356 0.337783 0.337783
0.862637 0.337783 0.337783
1.000000 0.337783 0.337783
0.000000 0.464398 0.337783
0.100155 0.464398 0.337783
0.215665 0.464398 0.337783
0.337783 0.464398 0.337783
0.464398 0.464398 0.337783
0.594467 0.464398 0.337783
0.727356 0.464398 0.337783
0.862637 0.464398 0.337783
1.000000 0.464398 0.337783
0.000000 0.594467 0.337783
0.100155 0.594467 0.337783
0.215665 0.594467 0.337783
0.337783 0.594467 0.337783
0.464398 0.594467 0.337783
0.594467 0.594467 0.337783
0.727356 0.594467 0.337783
0.862637 0.594467 0.337783
1.000000 0.594467 0.337783
0.000000 0.727356 0.337783
0.100155 0.727356 0.337783
0.215665 0.727356 0.337783
0.337783 0.727356 0.337783
0.464398 0.727356 0.337783
0.594467 0.727356 0.337783
0.727356 0.727356 0.337783
0.862637 0.727356 0.337783
1.000000 0.727356 0.337783
0.000000 0.862637 0.337783
0.100155 0.862637 0.337783
0.215665 0.862637 0.337783
0.337783 0.862637 0.337783
0.464398 0.862637 0.337783
0.594467 0.862637 0.337783
0.727356 0.862637 0.337783
0.862637 0.862637 0.337783
1.000000 0.862637 0.337783
0.000000 1.000000 0.337783
0.100155 1.000000 0.337783
0.215665 1.000000 0.337783
0.337783 1.000000 0.337783
0.464398 1.000000 0.337783
0.594467 1.000000 0.337783
0.727356 1.000000 0.337783
0.862637 1.000000 0.337783
1.000000 1.000000 0.337783
0.000000 0.000000 0.464398
0.100155 0.000000 0.464398
0.215665 0.000000 0.464398
0.337783 0.000000 0.464398
0.464398 0.000000 0.464398
0.594467 0.000000 0.464398
0.727356 0.000000 0.464398
0.862637 0.000000 0.464398
1.000000 0.000000 0.464398
0.000000 0.100155 0.464398
0.100155 0.100155 0.464398
0.215665 0.100155 0.464398
0.337783 0.100155 0.464398
0.464398 0.100155 0.464398
0.594467 0.100155 0.464398
0.727356 0.100155 0.464398
0.862637 0.100155 0.464398
1.000000 0.100155 0.464398
0.000000 0.215665 0.464398
0.100155 0.215665 0.464398
0.215665 0.215665 0.464398
0.337783 0.215665 0.464398
0.464398 0.215665 0.464398
0.594467 0.215665 0.464398
0.727356 0.215665 0.464398
0.862637 0.215665 0.464398
1.000000 0.215665 0.464398
0.000000 0.337783 0.464398
0.100155 0.337783 0.464398
0.215665 0.337783 0.464398
0.337783 0.337783 0.464398
0.464398 0.337783 0.464398
0.594467 0.337783 0.464398
0.727356 0.337783 0.464398
0.862637 0.337783 0.464398
1.000000 0.337783 0.464398
0.000000 0.464398 0.464398
0.100155 0.464398 0.464398
0.215665 0.464398 0.464398
0.337783 0.464398 0.464398
0.464398 0.464398 0.464398
0.594467 0.464398 0.464398
0.727356 0.464398 0.464398
0.862637 0.464398 0.464398
1.000000 0.464398 0.464398
0.000000 0.594467 0.464398
0.100155 0.594467 0.464398
0.215665 0.594467 0.464398
0.337783 0.594467 0.464398
0.464398 0.594467 0.464398
0.594467 0.594467 0.464398
0.727356 0.594467 0.464398
0.862637 0.594467 0.464398
1.000000 0.594467 0.464398
0.000000 0.727356 0.464398
0.100155 0.727356 0.464398
0.215665 0.727356 0.464398
0.337783 0.727356 0.464398
0.464398 0.727356 0.464398
0.594467 0.727356 0.464398
0.727356 0.727356 0.464398
0.862637 0.727356 0.464398
1.000000 0.727356 0.464398
0.000000 0.862637 0.464398
0.100155 0.862637 0.464398
0.215665 0.862637 0.464398
0.337783 0.862637 0.464398
0.464398 0.862637 0.464398
0.594467 0.862637 0.464398
0.727356 0.862637 0.464398
0.862637 0.862637 0.464398
1.000000 0.862637 0.464398
0.000000 1.000000 0.464398
0.100155 1.000000 0.464398
0.215665 1.000000 0.464398
0.337783 1.000000 0.464398
0.464398 1.000000 0.464398
0.594467 1.000000 0.464398
0.727356 1.000000 0.464398
0.862637 1.000000 0.464398
1.000000 1.000000 0.464398
0.000000 0.000000 0.594467
0.100155 0.000000 0.594467
0.215665 0.000000 0.594467
0.337783 0.000000 0.594467
0.464398 0.000000 0.594467
0.594467 0.000000 0.594467
0.727356 0.000000 0.594467
0.862637 0.000000 0.594467
1.000000 0.000000 0.594467
0.000000 0.100155 0.594467
0.100155 0.100155 0.594467
0.215665 0.100155 0.594467
0.337783 0.100155 0.594467
0.464398 0.100155 0.594467
0.594467 0.100155 0.594467
0.727356 0.100155 0.594467
0.862637 0.100155 0.594467
1.000000 0.100155 0.594467
0.000000 0.215665 0.594467
0.100155 0.215665 0.594467
0.215665 0.215665 0.594467
0.337783 0.215665 0.594467
0.464398 0.215665 0.594467
0.594467 0.215665 0.594467
0.727356 0.215665 0.594467
0.862637 0.215665 0.594467
1.000000 0.215665 0.594467
0.000000 0.337783 0.594467
0.100155 0.337783 0.594467
0.215665 0.337783 0.594467
0.337783 0.337783 0.594467
0.464398 0.337783 0.594467
0.594467 0.337783 0.594467
0.727356 0.337783 0.594467
0.862637 0.337783 0.594467
1.000000 0.337783 0.594467
0.000000 0.464398 0.594467
0.100155 0.464398 0.594467
0.215665 0.464398 0.594467
0.337783 0.464398 0.594467
0.464398 0.464398 0.594467
0.594467 0.464398 0.594467
0.727356 0.464398 0.594467
0.862637 0.464398 0.594467
1.000000 0.464398 0.594467
0.000000 0.594467 0.594467
0.100155 0.594467 0.594467
0.215665 0.594467 0.594467
0.337783 0.594467 0.594467
0.464398 0.594467 0.594467
0.594467 0.594467 0.594467
0.727356 0.594467 0.594467
0.862637 0.594467 0.594467
1.000000 0.594467 0.594467
0.000000 0.727356 0.594467
0.100155 0.727356 0.594467
0.215665 0.727356 0.594467
0.337783 0.727356 0.594467
0.464398 0.727356 0.594467
0.594467 0.727356 0.594467
0.727356 0.727356 0.594467
0.862637 0.727356 0.594467
1.000000 0.727356 0.594467
0.000000 0.862637 0.594467
0.100155 0.862637 0.594467
0.215665 0.862637 0.594467
0.337783 0.862637 0.594467
0.464398 0.862637 0.594467
0.594467 0.862637 0.594467
0.727356 0.862637 0.594467
0.862637 0.862637 0.594467
1.000000 0.862637 0.594467
0.000000 1.000000 0.594467
0.100155 1.000000 0.594467
0.215665 1.000000 0.594467
0.337783 1.000000 0.594467
0.464398 1.000000 0.594467
0.594467 1.000000 0.594467
0.727356 1.000000 0.594467
0.862637 1.000000 0.594467
1.000000 1.000000 0.594467
0.000000 0.000000 0.727356
0.100155 0.000000 0.727356
0.215665 0.000000 0.727356
0.337783 0.000000 0.727356
0.464398 0.000000 0.727356
0.594467 0.000000 0.727356
0.727356 0.000000 0.727356
0.862637 0.000000 0.727356
1.000000 0.000000 0.727356
0.000000 0.100155 0.727356
0.100155 0.100155 0.727356
0.215665 0.100155 0.727356
0.337783 0.100155 0.727356
0.464398 0.100155 0.727356
0.594467 0.100155 0.727356
0.727356 0.100155 0.727356
0.862637 0.100155 0.727356
1.000000 0.100155 0.727356
0.000000 0.215665 0.727356
0.100155 0.215665 0.727356
0.215665 0.215665 0.727356
0.337783 0.215665 0.727356
0.464398 0.215665 0.727356
0.594467 0.215665 0.727356
0.727356 0.215665 0.727356
0.862637 0.215665 0.727356
1.000000 0.215665 0.727356
0.000000 0.337783 0.727356
0.100155 0.337783 0.727356
0.215665 0.337783 0.727356
0.337783 0.337783 0.727356
0.464398 0.337783 0.727356
0.594467 0.337783 0.727356
0.727356 0.337783 0.727356
0.862637 0.337783 0.727356
1.000000 0.337783 0.727356
0.000000 0.464398 0.727356
0.100155 0.464398 0.727356
0.215665 0.464398 0.727356
0.337783 0.464398 0.727356
0.464398 0.464398 0.727356
0.594467 0.464398 0.727356
0.727356 0.464398 0.727356
0.862637 0.464398 0.727356
1.000000 0.464398 0.727356
0.000000 0.594467 0.727356
0.100155 0.594467 0.727356
0.215665 0.594467 0.727356
0.337783 0.594467 0.727356
0.464398 0.594467 0.727356
0.594467 0.594467 0.727356
0.727356 0.594467 0.727356
0.862637 0.594467 0.727356
1.000000 0.594467 0.727356
0.000000 0.727356 0.727356
0.100155 0.727356 0.727356
0.215665 0.727356 0.727356
0.337783 0.727356 0.727356
0.464398 0.727356 0.727356
0.594467 0.727356 0.727356
0.727356 0.727356 0.727356
0.862637 0.727356 0.727356
1.000000 0.727356 0.727356
0.000000 0.862637 0.727356
0.100155 0.862637 0.727356
0.215665 0.862637 0.727356
0.337783 0.862637 0.727356
0.464398 0.862637 0.727356
0.594467 0.862637 0.727356
0.727356 0.862637 0.727356
0.862637 0.862637 0.727356
1.000000 0.862637 0.727356
0.000000 1.000000 0.727356
0.100155 1.000000 0.727356
0.215665 1.000000 0.727356
0.337783 1.000000 0.727356
0.464398 1.000000 0.727356
0.594467 1.000000 0.727356
0.727356 1.000000 0.727356
0.862637 1.000000 0.727356
1.000000 1.000000 0.727356
0.000000 0.000000 0.862637
0.100155 0.000000 0.862637
0.215665 0.000000 0.862637
0.337783 0.000000 0.862637
0.464398 0.000000 0.862637
0.594467 0.000000 0.862637
0.727356 0.000000 0.862637
0.862637 0.000000 0.862637
1.000000 0.000000 0.862637
0.000000 0.100155 0.862637
0.100155 0.100155 0.862637
0.215665 0.100155 0.862637
0.337783 0.100155 0.862637
0.464398 0.100155 0.862637
0.594467 0.100155 0.862637
0.727356 0.100155 0.862637
0.862637 0.100155 0.862637
1.000000 0.100155 0.862637
0.000000 0.215665 0.862637
0.100155 0.215665 0.862637
0.215665 0.215665 0.862637
0.337783 0.215665 0.862637
0.464398 0.215665 0.862637
0.594467 0.215665 0.862637
0.727356 0.215665 0.862637
0.862637 0.215665 0.862637
1.000000 0.215665 0.862637
0.000000 0.337783 0.862637
0.100155 0.337783 0.862637
0.215665 0.337783 0.862637
0.337783 0.337783 0.862637
0.464398 0.337783 0.862637
0.594467 0.337783 0.862637
0.727356 0.337783 0.862637
0.862637 0.337783 0.862637
1.000000 0.337783 0.862637
0.000000 0.464398 0.862637
0.100155 0.464398 0.862637
0.215665 0.464398 0.862637
0.337783 0.464398 0.862637
0.464398 0.464398 0.862637
0.594467 0.464398 0.862637
0.727356 0.464398 0.862637
0.862637 0.464398 0.862637
1.000000 0.464398 0.862637
0.000000 0.594467 0.862637
0.100155 0.594467 0.862637
0.215665 0.594467 0.862637
0.337783 0.594467 0.862637
0.464398 0.594467 0.862637
0.594467 0.594467 0.862637
0.727356 0.594467 0.862637
0.862637 0.594467 0.862637
1.000000 0.594467 0.862637
0.000000 0.727356 0.862637
0.100155 0.727356 0.862637
0.215665 0.727356 0.862637
0.337783 0.727356 0.862637
0.464398 0.727356 0.862637
0.594467 0.727356 0.862637
0.727356 0.727356 0.862637
0.862637 0.727356 0.862637
1.000000 0.727356 0.862637
0.000000 0.862637 0.862637
0.100155 0.862637 0.862637
0.215665 0.862637 0.862637
0.337783 0.862637 0.862637
0.464398 0.862637 0.862637
0.594467 0.862637 0.862637
0.727356 0.862637 0.862637
0.862637 0.862637 0.862637
1.000000 0.862637 0.862637
0.000000 1.000000 0.862637
0.100155 1.000000 0.862637
0.215665 1.000000 0.862637
0.337783 1.000000 0.862637
0.464398 1.000000 0.862637
0.594467 1.000000 0.862637
0.727356 1.000000 0.862637
0.862637 1.000000 0.862637
1.000000 1.000000 0.862637
0.000000 0.000000 1.000000
0.100155 0.000000 1.000000
0.215665 0.000000 1.000000
0.337783 0.000000 1.000000
0.464398 0.000000 1.000000
0.594467 0.000000 1.000000
0.727356 0.000000 1.000000
0.862637 0.000000 1.000000
1.000000 0.000000 1.000000
0.000000 0.100155 1.000000
0.100155 0.100155 1.000000
0.215665 0.100155 1.000000
0.337783 0.100155 1.000000
0.464398 0.100155 1.000000
0.594467 0.100155 1.000000
0.727356 0.100155 1.000000
0.862637 0.100155 1.000000
1.000000 0.100155 1.000000
0.000000 0.215665 1.000000
0.100155 0.215665 1.000000
0.215665 0.215665 1.000000
0.337783 0.215665 1.000000
0.464398 0.215665 1.000000
0.594467 0.215665 1.000000
0.727356 0.215665 1.000000
0.862637 0.215665 1.000000
1.000000 0.215665 1.000000
0.000000 0.337783 1.000000
0.100155 0.337783 1.000000
0.215665 0.337783 1.000000
0.337783 0.337783 1.000000
0.464398 0.337783 1.000000
0.594467 0.337783 1.000000
0.727356 0.337783 1.000000
0.862637 0.337783 1.000000
1.000000 0.337783 1.000000
0.000000 0.464398 1.000000
0.100155 0.464398 1.000000
0.215665 0.464398 1.000000
0.337783 0.464398 1.000000
0.464398 0.464398 1.000000
0.594467 0.464398 1.000000
0.727356 0.464398 1.000000
0.862637 0.464398 1.000000
1.000000 0.464398 1.000000
0.000000 0.594467 1.000000
0.100155 0.594467 1.000000
0.215665 0.594467 1.000000
0.337783 0.594467 1.000000
0.464398 0.594467 1.000000
0.594467 0.594467 1.000000
0.727356 0.594467 1.000000
0.862637 0.594467 1.000000
1.000000 0.594467 1.000000
0.000000 0.727356 1.000000
0.100155 0.727356 1.000000
0.215665 0.727356 1.000000
0.337783 0.727356 1.000000
0.464398 0.727356 1.000000
0.594467 0.727356 1.000000
0.727356 0.727356 1.000000
0.862637 0.727356 1.000000
1.000000 0.727356 1.000000
0.000000 0.862637 1.000000
0.100155 0.862637 1.000000
0.215665 0.862637 1.000000
0.337783 0.862637 1.000000
0.464398 0.862637 1.000000
0.594467 0.862637 1.000000
0.727356 0.862637 1.000000
0.862637 0.862637 1.000000
1.000000 0.862637 1.000000
0.000000 1.000000 1.000000
0.100155 1.000000 1.000000
0.215665 1.000000 1.000000
0.337783 1.000000 1.000000
0.464398 1.000000 1.000000
0.594467 1.000000 1.000000
0.727356 1.000000 1.000000
0.862637 1.000000 1.000000
1.000000 1.000000 1.000000
