assets/luts/qt_gamma_comp_100.cube
TITLE "qt_gamma_comp_100"
LUT_3D_SIZE 9
DOMAIN_MIN 0.0 0.0 0.0
DOMAIN_MAX 1.0 1.0 1.0
0.000000 0.000000 0.000000
0.078375 0.000000 0.000000
0.183140 0.000000 0.000000
0.300889 0.000000 0.000000
0.427949 0.000000 0.000000
0.562415 0.000000 0.000000
0.703095 0.000000 0.000000
0.849160 0.000000 0.000000
1.000000 0.000000 0.000000
0.000000 0.078375 0.000000
0.078375 0.078375 0.000000
0.183140 0.078375 0.000000
0.300889 0.078375 0.000000
0.427949 0.078375 0.000000
0.562415 0.078375 0.000000
0.703095 0.078375 0.000000
0.849160 0.078375 0.000000
1.000000 0.078375 0.000000
0.000000 0.183140 0.000000
0.078375 0.183140 0.000000
0.183140 0.183140 0.000000
0.300889 0.183140 0.000000
0.427949 0.183140 0.000000
0.562415 0.183140 0.000000
0.703095 0.183140 0.000000
0.849160 0.183140 0.000000
1.000000 0.183140 0.000000
0.000000 0.300889 0.000000
0.078375 0.300889 0.000000
0.183140 0.300889 0.000000
0.300889 0.300889 0.000000
0.427949 0.300889 0.000000
0.562415 0.300889 0.000000
0.703095 0.300889 0.000000
0.849160 0.300889 0.000000
1.000000 0.300889 0.000000
0.000000 0.427949 0.000000
0.078375 0.427949 0.000000
0.183140 0.427949 0.000000
0.300889 0.427949 0.000000
0.427949 0.427949 0.000000
0.562415 0.427949 0.000000
0.703095 0.427949 0.000000
0.849160 0.427949 0.000000
1.000000 0.427949 0.000000
0.000000 0.562415 0.000000
0.078375 0.562415 0.000000
0.183140 0.562415 0.000000
0.300889 0.562415 0.000000
0.427949 0.562415 0.000000
0.562415 0.562415 0.000000
0.703095 0.562415 0.000000
0.849160 0.562415 0.000000
1.000000 0.562415 0.000000
0.000000 0.703095 0.000000
0.078375 0.703095 0.000000
0.183140 0.703095 0.000000
0.300889 0.703095 0.000000
0.427949 0.703095 0.000000
0.562415 0.703095 0.000000
0.703095 0.703095 0.000000
0.849160 0.703095 0.000000
1.000000 0.703095 0.000000
0.000000 0.849160 0.000000
0.078375 0.849160 0.000000
0.183140 0.849160 0.000000
0.300889 0.849160 0.000000
0.427949 0.849160 0.000000
0.562415 0.849160 0.000000
0.703095 0.849160 0.000000
0.849160 0.849160 0.000000
1.000000 0.849160 0.000000
0.000000 1.000000 0.000000
0.078375 1.000000 0.000000
0.183140 1.000000 0.000000
0.300889 1.000000 0.000000
0.427949 1.000000 0.000000
0.562415 1.000000 0.000000
0.703095 1.000000 0.000000
0.849160 1.000000 0.000000
1.000000 1.000000 0.000000
0.000000 0.000000 0.078375
0.078375 0.000000 0.078375
0.183140 0.000000 0.078375
0.300889 0.000000 0.078375
0.427949 0.000000 0.078375
0.562415 0.000000 0.078375
0.703095 0.000000 0.078375
0.849160 0.000000 0.078375
1.000000 0.000000 0.078375
0.000000 0.078375 0.078375
0.078375 0.078375 0.078375
0.183140 0.078375 0.078375
0.300889 0.078375 0.078375
0.427949 0.078375 0.078375
0.562415 0.078375 0.078375
0.703095 0.078375 0.078375
0.849160 0.078375 0.078375
1.000000 0.078375 0.078375
0.000000 0.183140 0.078375
0.078375 0.183140 0.078375
0.183140 0.183140 0.078375
0.300889 0.183140 0.078375
0.427949 0.183140 0.078375
0.562415 0.183140 0.078375
0.703095 0.183140 0.078375
0.849160 0.183140 0.078375
1.000000 0.183140 0.078375
0.000000 0.300889 0.078375
0.078375 0.300889 0.078375
0.183140 0.300889 0.078375
0.300889 0.300889 0.078375
0.427949 0.300889 0.078375
0.562415 0.300889 0.078375
0.703095 0.300889 0.078375
0.849160 0.300889 0.078375
1.000000 0.300889 0.078375
0.000000 0.427949 0.078375
0.078375 0.427949 0.078375
0.183140 0.427949 0.078375
0.300889 0.427949 0.078375
0.427949 0.427949 0.078375
0.562415 0.427949 0.078375
0.703095 0.427949 0.078375
0.849160 0.427949 0.078375
1.000000 0.427949 0.078375
0.000000 0.562415 0.078375
0.078375 0.562415 0.078375
0.183140 0.562415 0.078375
0.300889 0.562415 0.078375
0.427949 0.562415 0.078375
0.562415 0.562415 0.078375
0.703095 0.562415 0.078375
0.849160 0.562415 0.078375
1.000000 0.562415 0.078375
0.000000 0.703095 0.078375
0.078375 0.703095 0.078375
0.183140 0.703095 0.078375
0.300889 0.703095 0.078375
0.427949 0.703095 0.078375
0.562415 0.703095 0.078375
0.703095 0.703095 0.078375
0.849160 0.703095 0.078375
1.000000 0.703095 0.078375
0.000000 0.849160 0.078375
0.078375 0.849160 0.078375
0.183140 0.849160 0.078375
0.300889 0.849160 0.078375
0.427949 0.849160 0.078375
0.562415 0.849160 0.078375
0.703095 0.849160 0.078375
0.849160 0.849160 0.078375
1.000000 0.849160 0.078375
0.000000 1.000000 0.078375
0.078375 1.000000 0.078375
0.183140 1.000000 0.078375
0.300889 1.000000 0.078375
0.427949 1.000000 0.078375
0.562415 1.000000 0.078375
0.703095 1.000000 0.078375
0.849160 1.000000 0.078375
1.000000 1.000000 0.078375
0.000000 0.000000 0.183140
0.078375 0.000000 0.183140
0.183140 0.000000 0.183140
0.300889 0.000000 0.183140
0.427949 0.000000 0.183140
0.562415 0.000000 0.183140
0.703095 0.000000 0.183140
0.849160 0.000000 0.183140
1.000000 0.000000 0.183140
0.000000 0.078375 0.183140
0.078375 0.078375 0.183140
0.183140 0.078375 0.183140
0.300889 0.078375 0.183140
0.427949 0.078375 0.183140
0.562415 0.078375 0.183140
0.703095 0.078375 0.183140
0.849160 0.078375 0.183140
1.000000 0.078375 0.183140
0.000000 0.183140 0.183140
0.078375 0.183140 0.183140
0.183140 0.183140 0.183140
0.300889 0.183140 0.183140
0.427949 0.183140 0.183140
0.562415 0.183140 0.183140
0.703095 0.183140 0.183140
0.849160 0.183140 0.183140
1.000000 0.183140 0.183140
0.000000 0.300889 0.183140
0.078375 0.300889 0.183140
0.183140 0.300889 0.183140
0.300889 0.300889 0.183140
0.427949 0.300889 0.183140
0.562415 0.300889 0.183140
0.703095 0.300889 0.183140
0.849160 0.300889 0.183140
1.000000 0.300889 0.183140
0.000000 0.427949 0.183140
0.078375 0.427949 0.183140
0.183140 0.427949 0.183140
0.300889 0.427949 0.183140
0.427949 0.427949 0.183140
0.562415 0.427949 0.183140
0.703095 0.427949 0.183140
0.849160 0.427949 0.183140
1.000000 0.427949 0.183140
0.000000 0.562415 0.183140
0.078375 0.562415 0.183140
0.183140 0.562415 0.183140
0.300889 0.562415 0.183140
0.427949 0.562415 0.183140
0.562415 0.562415 0.183140
0.703095 0.562415 0.183140
0.849160 0.562415 0.183140
1.000000 0.562415 0.183140
0.000000 0.703095 0.183140
0.078375 0.703095 0.183140
0.183140 0.703095 0.183140
0.300889 0.703095 0.183140
0.427949 0.703095 0.183140
0.562415 0.703095 0.183140
0.703095 0.703095 0.183140
0.849160 0.703095 0.183140
1.000000 0.703095 0.183140
0.000000 0.849160 0.183140
0.078375 0.849160 0.183140
0.183140 0.849160 0.183140
0.300889 0.849160 0.183140
0.427949 0.849160 0.183140
0.562415 0.849160 0.183140
0.703095 0.849160 0.183140
0.849160 0.849160 0.183140
1.000000 0.849160 0.183140
0.000000 1.000000 0.183140
0.078375 1.000000 0.183140
0.183140 1.000000 0.183140
0.300889 1.000000 0.183140
0.427949 1.000000 0.183140
0.562415 1.000000 0.183140
0.703095 1.000000 0.183140
0.849160 1.000000 0.183140
1.000000 1.000000 0.183140
0.000000 0.000000 0.300889
0.078375 0.000000 0.300889
0.183140 0.000000 0.300889
0.300889 0.000000 0.300889
0.427949 0.000000 0.300889
0.562415 0.000000 0.300889
0.703095 0.000000 0.300889
0.849160 0.000000 0.300889
1.000000 0.000000 0.300889
0.000000 0.078375 0.300889
0.078375 0.078375 0.300889
0.183140 0.078375 0.300889
0.300889 0.078375 0.300889
0.427949 0.078375 0.300889
0.562415 0.078375 0.300889
0.703095 0.078375 0.300889
0.849160 0.078375 0.300889
1.000000 0.078375 0.300889
0.000000 0.183140 0.300889
0.078375 0.183140 0.300889
0.183140 0.183140 0.300889
0.300889 0.183140 0.300889
0.427949 0.183140 0.300889
0.562415 0.183140 0.300889
0.703095 0.183140 0.300889
0.849160 0.183140 0.300889
1.000000 0.183140 0.300889
0.000000 0.300889 0.300889
0.078375 0.300889 0.300889
0.183140 0.300889 0.300889
0.300889 0.300889 0.300889
0.427949 0.300889 0.300889
0.562415 0.300889 0.300889
0.703095 0.300889 0.300889
0.849160 0.300889 0.300889
1.000000 0.300889 0.300889
0.000000 0.427949 0.300889
0.078375 0.427949 0.300889
0.183140 0.427949 0.300889
0.300889 0.427949 0.300889
0.427949 0.427949 0.300889
0.562415 0.427949 0.300889
0.703095 0.427949 0.300889
0.849160 0.427949 0.300889
1.000000 0.427949 0.300889
0.000000 0.562415 0.300889
0.078375 0.562415 0.300889
0.183140 0.562415 0.300889
0.300889 0.562415 0.300889
0.427949 0.562415 0.300889
0.562415 0.562415 0.300889
0.703095 0.562415 0.300889
0.849160 0.562415 0.300889
1.000000 0.562415 0.300889
0.000000 0.703095 0.300889
0.078375 0.703095 0.300889
0.183140 0.703095 0.300889
0.300889 0.703095 0.300889
0.427949 0.703095 0.300889
0.562415 0.703095 0.300889
0.703095 0.703095 0.300889
0.849160 0.703095 0.300889
1.000000 0.703095 0.300889
0.000000 0.849160 0.300889
0.078375 0.849160 0.300889
0.183140 0.849160 0.300889
0.300889 0.849160 0.300889
0.427949 0.849160 0.300889
0.562415 0.849160 0.300889
0.703095 0.849160 0.300889
0.849160 0.849160 0.300889
1.000000 0.849160 0.300889
0.000000 1.000000 0.300889
0.078375 1.000000 0.300889
0.183140 1.000000 0.300889
0.300889 1.000000 0.300889
0.427949 1.000000 0.300889
0.562415 1.000000 0.300889
0.703095 1.000000 0.300889
0.849160 1.000000 0.300889
1.000000 1.000000 0.300889
0.000000 0.000000 0.427949
0.078375 0.000000 0.427949
0.183140 0.000000 0.427949
0.300889 0.000000 0.427949
0.427949 0.000000 0.427949
0.562415 0.000000 0.427949
0.703095 0.000000 0.427949
0.849160 0.000000 0.427949
1.000000 0.000000 0.427949
0.000000 0.078375 0.427949
0.078375 0.078375 0.427949
0.183140 0.078375 0.427949
0.300889 0.078375 0.427949
0.427949 0.078375 0.427949
0.562415 0.078375 0.427949
0.703095 0.078375 0.427949
0.849160 0.078375 0.427949
1.000000 0.078375 0.427949
0.000000 0.183140 0.427949
0.078375 0.183140 0.427949
0.183140 0.183140 0.427949
0.300889 0.183140 0.427949
0.427949 0.183140 0.427949
0.562415 0.183140 0.427949
0.703095 0.183140 0.427949
0.849160 0.183140 0.427949
1.000000 0.183140 0.427949
0.000000 0.300889 0.427949
0.078375 0.300889 0.427949
0.183140 0.300889 0.427949
0.300889 0.300889 0.427949
0.427949 0.300889 0.427949
0.562415 0.300889 0.427949
0.703095 0.300889 0.427949
0.849160 0.300889 0.427949
1.000000 0.300889 0.427949
0.000000 0.427949 0.427949
0.078375 0.427949 0.427949
0.183140 0.427949 0.427949
0.300889 0.427949 0.427949
0.427949 0.427949 0.427949
0.562415 0.427949 0.427949
0.703095 0.427949 0.427949
0.849160 0.427949 0.427949
1.000000 0.427949 0.427949
0.000000 0.562415 0.427949
0.078375 0.562415 0.427949
0.183140 0.562415 0.427949
0.300889 0.562415 0.427949
0.427949 0.562415 0.427949
0.562415 0.562415 0.427949
0.703095 0.562415 0.427949
0.849160 0.562415 0.427949
1.000000 0.562415 0.427949
0.000000 0.703095 0.427949
0.078375 0.703095 0.427949
0.183140 0.703095 0.427949
0.300889 0.703095 0.427949
0.427949 0.703095 0.427949
0.562415 0.703095 0.427949
0.703095 0.703095 0.427949
0.849160 0.703095 0.427949
1.000000 0.703095 0.427949
0.000000 0.849160 0.427949
0.078375 0.849160 0.427949
0.183140 0.849160 0.427949
0.300889 0.849160 0.427949
0.427949 0.849160 0.427949
0.562415 0.849160 0.427949
0.703095 0.849160 0.427949
0.849160 0.849160 0.427949
1.000000 0.849160 0.427949
0.000000 1.000000 0.427949
0.078375 1.000000 0.427949
0.183140 1.000000 0.427949
0.300889 1.000000 0.427949
0.427949 1.000000 0.427949
0.562415 1.000000 0.427949
0.703095 1.000000 0.427949
0.849160 1.000000 0.427949
1.000000 1.000000 0.427949
0.000000 0.000000 0.562415
0.078375 0.000000 0.562415
0.183140 0.000000 0.562415
0.300889 0.000000 0.562415
0.427949 0.000000 0.562415
0.562415 0.000000 0.562415
0.703095 0.000000 0.562415
0.849160 0.000000 0.562415
1.000000 0.000000 0.562415
0.000000 0.078375 0.562415
0.078375 0.078375 0.562415
0.183140 0.078375 0.562415
0.300889 0.078375 0.562415
0.427949 0.078375 0.562415
0.562415 0.078375 0.562415
0.703095 0.078375 0.562415
0.849160 0.078375 0.562415
1.000000 0.078375 0.562415
0.000000 0.183140 0.562415
0.078375 0.183140 0.562415
0.183140 0.183140 0.562415
0.300889 0.183140 0.562415
0.427949 0.183140 0.562415
0.562415 0.183140 0.562415
0.703095 0.183140 0.562415
0.849160 0.183140 0.562415
1.000000 0.183140 0.562415
0.000000 0.300889 0.562415
0.078375 0.300889 0.562415
0.183140 0.300889 0.562415
0.300889 0.300889 0.562415
0.427949 0.300889 0.562415
0.562415 0.300889 0.562415
0.703095 0.300889 0.562415
0.849160 0.300889 0.562415
1.000000 0.300889 0.562415
0.000000 0.427949 0.562415
0.078375 0.427949 0.562415
0.183140 0.427949 0.562415
0.300889 0.427949 0.562415
0.427949 0.427949 0.562415
0.562415 0.427949 0.562415
0.703095 0.427949 0.562415
0.849160 0.427949 0.562415
1.000000 0.427949 0.562415
0.000000 0.562415 0.562415
0.078375 0.562415 0.562415
0.183140 0.562415 0.562415
0.300889 0.562415 0.562415
0.427949 0.562415 0.562415
0.562415 0.562415 0.562415
0.703095 0.562415 0.562415
0.849160 0.562415 0.562415
1.000000 0.562415 0.562415
0.000000 0.703095 0.562415
0.078375 0.703095 0.562415
0.183140 0.703095 0.562415
0.300889 0.703095 0.562415
0.427949 0.703095 0.562415
0.562415 0.703095 0.562415
0.703095 0.703095 0.562415
0.849160 0.703095 0.562415
1.000000 0.703095 0.562415
0.000000 0.849160 0.562415
0.078375 0.849160 0.562415
0.183140 0.849160 0.562415
0.300889 0.849160 0.562415
0.427949 0.849160 0.562415
0.562415 0.849160 0.562415
0.703095 0.849160 0.562415
0.849160 0.849160 0.562415
1.000000 0.849160 0.562415
0.000000 1.000000 0.562415
0.078375 1.000000 0.562415
0.183140 1.000000 0.562415
0.300889 1.000000 0.562415
0.427949 1.000000 0.562415
0.562415 1.000000 0.562415
0.703095 1.000000 0.562415
0.849160 1.000000 0.562415
1.000000 1.000000 0.562415
0.000000 0.000000 0.703095
0.078375 0.000000 0.703095
0.183140 0.000000 0.703095
0.300889 0.000000 0.703095
0.427949 0.000000 0.703095
0.562415 0.000000 0.703095
0.703095 0.000000 0.703095
0.849160 0.000000 0.703095
1.000000 0.000000 0.703095
0.000000 0.078375 0.703095
0.078375 0.078375 0.703095
0.183140 0.078375 0.703095
0.300889 0.078375 0.703095
0.427949 0.078375 0.703095
0.562415 0.078375 0.703095
0.703095 0.078375 0.703095
0.849160 0.078375 0.703095
1.000000 0.078375 0.703095
0.000000 0.183140 0.703095
0.078375 0.183140 0.703095
0.183140 0.183140 0.703095
0.300889 0.183140 0.703095
0.427949 0.183140 0.703095
0.562415 0.183140 0.703095
0.703095 0.183140 0.703095
0.849160 0.183140 0.703095
1.000000 0.183140 0.703095
0.000000 0.300889 0.703095
0.078375 0.300889 0.703095
0.183140 0.300889 0.703095
0.300889 0.300889 0.703095
0.427949 0.300889 0.703095
0.562415 0.300889 0.703095
0.703095 0.300889 0.703095
0.849160 0.300889 0.703095
1.000000 0.300889 0.703095
0.000000 0.427949 0.703095
0.078375 0.427949 0.703095
0.183140 0.427949 0.703095
0.300889 0.427949 0.703095
0.427949 0.427949 0.703095
0.562415 0.427949 0.703095
0.703095 0.427949 0.703095
0.849160 0.427949 0.703095
1.000000 0.427949 0.703095
0.000000 0.562415 0.703095
0.078375 0.562415 0.703095
0.183140 0.562415 0.703095
0.300889 0.562415 0.703095
0.427949 0.562415 0.703095
0.562415 0.562415 0.703095
0.703095 0.562415 0.703095
0.849160 0.562415 0.703095
1.000000 0.562415 0.703095
0.000000 0.703095 0.703095
0.078375 0.703095 0.703095
0.183140 0.703095 0.703095
0.300889 0.703095 0.703095
0.427949 0.703095 0.703095
0.562415 0.703095 0.703095
0.703095 0.703095 0.703095
0.849160 0.703095 0.703095
1.000000 0.703095 0.703095
0.000000 0.849160 0.703095
0.078375 0.849160 0.703095
0.183140 0.849160 0.703095
0.300889 0.849160 0.703095
0.427949 0.849160 0.703095
0.562415 0.849160 0.703095
0.703095 0.849160 0.703095
0.849160 0.849160 0.703095
1.000000 0.849160 0.703095
0.000000 1.000000 0.703095
0.078375 1.000000 0.703095
0.183140 1.000000 0.703095
0.300889 1.000000 0.703095
0.427949 1.000000 0.703095
0.562415 1.000000 0.703095
0.703095 1.000000 0.703095
0.849160 1.000000 0.703095
1.000000 1.000000 0.703095
0.000000 0.000000 0.849160
0.078375 0.000000 0.849160
0.183140 0.000000 0.849160
0.300889 0.000000 0.849160
0.427949 0.000000 0.849160
0.562415 0.000000 0.849160
0.703095 0.000000 0.849160
0.849160 0.000000 0.849160
1.000000 0.000000 0.849160
0.000000 0.078375 0.849160
0.078375 0.078375 0.849160
0.183140 0.078375 0.849160
0.300889 0.078375 0.849160
0.427949 0.078375 0.849160
0.562415 0.078375 0.849160
0.703095 0.078375 0.849160
0.849160 0.078375 0.849160
1.000000 0.078375 0.849160
0.000000 0.183140 0.849160
0.078375 0.183140 0.849160
0.183140 0.183140 0.849160
0.300889 0.183140 0.849160
0.427949 0.183140 0.849160
0.562415 0.183140 0.849160
0.703095 0.183140 0.849160
0.849160 0.183140 0.849160
1.000000 0.183140 0.849160
0.000000 0.300889 0.849160
0.078375 0.300889 0.849160
0.183140 0.300889 0.849160
0.300889 0.300889 0.849160
0.427949 0.300889 0.849160
0.562415 0.300889 0.849160
0.703095 0.300889 0.849160
0.849160 0.300889 0.849160
1.000000 0.300889 0.849160
0.000000 0.427949 0.849160
0.078375 0.427949 0.849160
0.183140 0.427949 0.849160
0.300889 0.427949 0.849160
0.427949 0.427949 0.849160
0.562415 0.427949 0.849160
0.703095 0.427949 0.849160
0.849160 0.427949 0.849160
1.000000 0.427949 0.849160
0.000000 0.562415 0.849160
0.078375 0.562415 0.849160
0.183140 0.562415 0.849160
0.300889 0.562415 0.849160
0.427949 0.562415 0.849160
0.562415 0.562415 0.849160
0.703095 0.562415 0.849160
0.849160 0.562415 0.849160
1.000000 0.562415 0.849160
0.000000 0.703095 0.849160
0.078375 0.703095 0.849160
0.183140 0.703095 0.849160
0.300889 0.703095 0.849160
0.427949 0.703095 0.849160
0.562415 0.703095 0.849160
0.703095 0.703095 0.849160
0.849160 0.703095 0.849160
1.000000 0.703095 0.849160
0.000000 0.849160 0.849160
0.078375 0.849160 0.849160
0.183140 0.849160 0.849160
0.300889 0.849160 0.849160
0.427949 0.849160 0.849160
0.562415 0.849160 0.849160
0.703095 0.849160 0.849160
0.849160 0.849160 0.849160
1.000000 0.849160 0.849160
0.000000 1.000000 0.849160
0.078375 1.000000 0.849160
0.183140 1.000000 0.849160
0.300889 1.000000 0.849160
0.427949 1.000000 0.849160
0.562415 1.000000 0.849160
0.703095 1.000000 0.849160
0.849160 1.000000 0.849160
1.000000 1.000000 0.849160
0.000000 0.000000 1.000000
0.078375 0.000000 1.000000
0.183140 0.000000 1.000000
0.300889 0.000000 1.000000
0.427949 0.000000 1.000000
0.562415 0.000000 1.000000
0.703095 0.000000 1.000000
0.849160 0.000000 1.000000
1.000000 0.000000 1.000000
0.000000 0.078375 1.000000
0.078375 0.078375 1.000000
0.183140 0.078375 1.000000
0.300889 0.078375 1.000000
0.427949 0.078375 1.000000
0.562415 0.078375 1.000000
0.703095 0.078375 1.000000
0.849160 0.078375 1.000000
1.000000 0.078375 1.000000
0.000000 0.183140 1.000000
0.078375 0.183140 1.000000
0.183140 0.183140 1.000000
0.300889 0.183140 1.000000
0.427949 0.183140 1.000000
0.562415 0.183140 1.000000
0.703095 0.183140 1.000000
0.849160 0.183140 1.000000
1.000000 0.183140 1.000000
0.000000 0.300889 1.000000
0.078375 0.300889 1.000000
0.183140 0.300889 1.000000
0.300889 0.300889 1.000000
0.427949 0.300889 1.000000
0.562415 0.300889 1.000000
0.703095 0.300889 1.000000
0.849160 0.300889 1.000000
1.000000 0.300889 1.000000
0.000000 0.427949 1.000000
0.078375 0.427949 1.000000
0.183140 0.427949 1.000000
0.300889 0.427949 1.000000
0.427949 0.427949 1.000000
0.562415 0.427949 1.000000
0.703095 0.427949 1.000000
0.849160 0.427949 1.000000
1.000000 0.427949 1.000000
0.000000 0.562415 1.000000
0.078375 0.562415 1.000000
0.183140 0.562415 1.000000
0.300889 0.562415 1.000000
0.427949 0.562415 1.000000
0.562415 0.562415 1.000000
0.703095 0.562415 1.000000
0.849160 0.562415 1.000000
1.000000 0.562415 1.000000
0.000000 0.703095 1.000000
0.078375 0.703095 1.000000
0.183140 0.703095 1.000000
0.300889 0.703095 1.000000
0.427949 0.703095 1.000000
0.562415 0.703095 1.000000
0.703095 0.703095 1.000000
0.849160 0.703095 1.000000
1.000000 0.703095 1.000000
0.000000 0.849160 1.000000
0.078375 0.849160 1.000000
0.183140 0.849160 1.000000
0.300889 0.849160 1.000000
0.427949 0.849160 1.000000
0.562415 0.849160 1.000000
0.703095 0.849160 1.000000
0.849160 0.849160 1.000000
1.000000 0.849160 1.000000
0.000000 1.000000 1.000000
0.078375 1.000000 1.000000
0.183140 1.000000 1.000000
0.300889 1.000000 1.000000
0.427949 1.000000 1.000000
0.562415 1.000000 1.000000
0.703095 1.000000 1.000000
0.849160 1.000000 1.000000
1.000000 1.000000 1.000000
